(Project Wide)
(Created by Estlcam version 11 build 11.118)
(Machining time about 03:01:12 hours)

(Required tools:)
(End mill 2 mm)
G21
G90
G94
M03 S24000
G00 Z5.0000


(No. 1: Hole 1)
G00 X24.6124 Y127.2015
G00 Z0.5000
G01 Z-0.3000 F250 S24000
G03 X24.8340 Y127.4656 I0.0345 J0.1960
G03 X24.4945 Y127.5255 I-0.1870 J-0.0681
G03 X24.6124 Y127.2015 I0.1525 J-0.1279
G01 Z-0.6000
G03 X24.8340 Y127.4656 I0.0345 J0.1960
G03 X24.4945 Y127.5255 I-0.1870 J-0.0681
G03 X24.6124 Y127.2015 I0.1525 J-0.1279
G01 Z-0.9000
G03 X24.8340 Y127.4656 I0.0345 J0.1960
G03 X24.4945 Y127.5255 I-0.1870 J-0.0681
G03 X24.6124 Y127.2015 I0.1525 J-0.1279
G01 Z-1.2000
G03 X24.8340 Y127.4656 I0.0345 J0.1960
G03 X24.4945 Y127.5255 I-0.1870 J-0.0681
G03 X24.6124 Y127.2015 I0.1525 J-0.1279
G01 Z-1.5000
G03 X24.8340 Y127.4656 I0.0345 J0.1960
G03 X24.4945 Y127.5255 I-0.1870 J-0.0681
G03 X24.6124 Y127.2015 I0.1525 J-0.1279
G01 Z-1.8000
G03 X24.8340 Y127.4656 I0.0345 J0.1960
G03 X24.4945 Y127.5255 I-0.1870 J-0.0681
G03 X24.6124 Y127.2015 I0.1525 J-0.1279
G01 Z-2.1000
G03 X24.8340 Y127.4656 I0.0345 J0.1960
G03 X24.4945 Y127.5255 I-0.1870 J-0.0681
G03 X24.6124 Y127.2015 I0.1525 J-0.1279
G01 Z-2.4000
G03 X24.8340 Y127.4656 I0.0345 J0.1960
G03 X24.4945 Y127.5255 I-0.1870 J-0.0681
G03 X24.6124 Y127.2015 I0.1525 J-0.1279
G01 Z-2.7000
G03 X24.8340 Y127.4656 I0.0345 J0.1960
G03 X24.4945 Y127.5255 I-0.1870 J-0.0681
G03 X24.6124 Y127.2015 I0.1525 J-0.1279
G01 Z-3.0000
G03 X24.8340 Y127.4656 I0.0345 J0.1960
G03 X24.4945 Y127.5255 I-0.1870 J-0.0681
G03 X24.6124 Y127.2015 I0.1525 J-0.1279
G01 Z-3.3000
G03 X24.8340 Y127.4656 I0.0345 J0.1960
G03 X24.4945 Y127.5255 I-0.1870 J-0.0681
G03 X24.6124 Y127.2015 I0.1525 J-0.1279
G01 Z-3.6000
G03 X24.8340 Y127.4656 I0.0345 J0.1960
G03 X24.4945 Y127.5255 I-0.1870 J-0.0681
G03 X24.6124 Y127.2015 I0.1525 J-0.1279
G01 Z-3.9000
G03 X24.8340 Y127.4656 I0.0345 J0.1960
G03 X24.4945 Y127.5255 I-0.1870 J-0.0681
G03 X24.6124 Y127.2015 I0.1525 J-0.1279
G01 Z-4.2000
G03 X24.8340 Y127.4656 I0.0345 J0.1960
G03 X24.4945 Y127.5255 I-0.1870 J-0.0681
G03 X24.6124 Y127.2015 I0.1525 J-0.1279
G01 Z-4.5000
G03 X24.8340 Y127.4656 I0.0345 J0.1960
G03 X24.4945 Y127.5255 I-0.1870 J-0.0681
G03 X24.6124 Y127.2015 I0.1525 J-0.1279
G01 Z-4.8000
G03 X24.8340 Y127.4656 I0.0345 J0.1960
G03 X24.4945 Y127.5255 I-0.1870 J-0.0681
G03 X24.6124 Y127.2015 I0.1525 J-0.1279
G01 Z-5.1000
G03 X24.8340 Y127.4656 I0.0345 J0.1960
G03 X24.4945 Y127.5255 I-0.1870 J-0.0681
G03 X24.6124 Y127.2015 I0.1525 J-0.1279
G01 Z-5.4000
G03 X24.8340 Y127.4656 I0.0345 J0.1960
G03 X24.4945 Y127.5255 I-0.1870 J-0.0681
G03 X24.6124 Y127.2015 I0.1525 J-0.1279
G01 Z-5.7000
G03 X24.8340 Y127.4656 I0.0345 J0.1960
G03 X24.4945 Y127.5255 I-0.1870 J-0.0681
G03 X24.6124 Y127.2015 I0.1525 J-0.1279
G01 Z-6.0000
G03 X24.8340 Y127.4656 I0.0345 J0.1960
G03 X24.4945 Y127.5255 I-0.1870 J-0.0681
G03 X24.6124 Y127.2015 I0.1525 J-0.1279
G01 Z-6.3000
G03 X24.8340 Y127.4656 I0.0345 J0.1960
G03 X24.4945 Y127.5255 I-0.1870 J-0.0681
G03 X24.6124 Y127.2015 I0.1525 J-0.1279
G01 Z-6.6000
G03 X24.8340 Y127.4656 I0.0345 J0.1960
G03 X24.4945 Y127.5255 I-0.1870 J-0.0681
G03 X24.6124 Y127.2015 I0.1525 J-0.1279
G01 Z-6.9000
G03 X24.8340 Y127.4656 I0.0345 J0.1960
G03 X24.4945 Y127.5255 I-0.1870 J-0.0681
G03 X24.6124 Y127.2015 I0.1525 J-0.1279
G01 Z-7.2000
G03 X24.8340 Y127.4656 I0.0345 J0.1960
G03 X24.4945 Y127.5255 I-0.1870 J-0.0681
G03 X24.6124 Y127.2015 I0.1525 J-0.1279
G01 Z-7.5000
G03 X24.8340 Y127.4656 I0.0345 J0.1960
G03 X24.4945 Y127.5255 I-0.1870 J-0.0681
G03 X24.6124 Y127.2015 I0.1525 J-0.1279
G01 Z-7.8000
G03 X24.8340 Y127.4656 I0.0345 J0.1960
G03 X24.4945 Y127.5255 I-0.1870 J-0.0681
G03 X24.6124 Y127.2015 I0.1525 J-0.1279
G01 Z-8.1000
G03 X24.8340 Y127.4656 I0.0345 J0.1960
G03 X24.4945 Y127.5255 I-0.1870 J-0.0681
G03 X24.6124 Y127.2015 I0.1525 J-0.1279
G00 Z5.0000


(No. 2: Hole 8)
G00 X73.0873 Y127.0813 Z5.0000
G00 Z0.5000
G01 Z-0.3000 F250
G03 X73.3859 Y127.2537 I0.0995 J0.1724
G03 X73.0873 Y127.4261 I-0.1990 J0.0000
G03 Y127.0813 I0.0995 J-0.1724
G01 Z-0.6000
G03 X73.3859 Y127.2537 I0.0995 J0.1724
G03 X73.0873 Y127.4261 I-0.1990 J0.0000
G03 Y127.0813 I0.0995 J-0.1724
G01 Z-0.9000
G03 X73.3859 Y127.2537 I0.0995 J0.1724
G03 X73.0873 Y127.4261 I-0.1990 J0.0000
G03 Y127.0813 I0.0995 J-0.1724
G01 Z-1.2000
G03 X73.3859 Y127.2537 I0.0995 J0.1724
G03 X73.0873 Y127.4261 I-0.1990 J0.0000
G03 Y127.0813 I0.0995 J-0.1724
G01 Z-1.5000
G03 X73.3859 Y127.2537 I0.0995 J0.1724
G03 X73.0873 Y127.4261 I-0.1990 J0.0000
G03 Y127.0813 I0.0995 J-0.1724
G01 Z-1.8000
G03 X73.3859 Y127.2537 I0.0995 J0.1724
G03 X73.0873 Y127.4261 I-0.1990 J0.0000
G03 Y127.0813 I0.0995 J-0.1724
G01 Z-2.1000
G03 X73.3859 Y127.2537 I0.0995 J0.1724
G03 X73.0873 Y127.4261 I-0.1990 J0.0000
G03 Y127.0813 I0.0995 J-0.1724
G01 Z-2.4000
G03 X73.3859 Y127.2537 I0.0995 J0.1724
G03 X73.0873 Y127.4261 I-0.1990 J0.0000
G03 Y127.0813 I0.0995 J-0.1724
G01 Z-2.7000
G03 X73.3859 Y127.2537 I0.0995 J0.1724
G03 X73.0873 Y127.4261 I-0.1990 J0.0000
G03 Y127.0813 I0.0995 J-0.1724
G01 Z-3.0000
G03 X73.3859 Y127.2537 I0.0995 J0.1724
G03 X73.0873 Y127.4261 I-0.1990 J0.0000
G03 Y127.0813 I0.0995 J-0.1724
G01 Z-3.3000
G03 X73.3859 Y127.2537 I0.0995 J0.1724
G03 X73.0873 Y127.4261 I-0.1990 J0.0000
G03 Y127.0813 I0.0995 J-0.1724
G01 Z-3.6000
G03 X73.3859 Y127.2537 I0.0995 J0.1724
G03 X73.0873 Y127.4261 I-0.1990 J0.0000
G03 Y127.0813 I0.0995 J-0.1724
G01 Z-3.9000
G03 X73.3859 Y127.2537 I0.0995 J0.1724
G03 X73.0873 Y127.4261 I-0.1990 J0.0000
G03 Y127.0813 I0.0995 J-0.1724
G01 Z-4.2000
G03 X73.3859 Y127.2537 I0.0995 J0.1724
G03 X73.0873 Y127.4261 I-0.1990 J0.0000
G03 Y127.0813 I0.0995 J-0.1724
G01 Z-4.5000
G03 X73.3859 Y127.2537 I0.0995 J0.1724
G03 X73.0873 Y127.4261 I-0.1990 J0.0000
G03 Y127.0813 I0.0995 J-0.1724
G01 Z-4.8000
G03 X73.3859 Y127.2537 I0.0995 J0.1724
G03 X73.0873 Y127.4261 I-0.1990 J0.0000
G03 Y127.0813 I0.0995 J-0.1724
G01 Z-5.1000
G03 X73.3859 Y127.2537 I0.0995 J0.1724
G03 X73.0873 Y127.4261 I-0.1990 J0.0000
G03 Y127.0813 I0.0995 J-0.1724
G01 Z-5.4000
G03 X73.3859 Y127.2537 I0.0995 J0.1724
G03 X73.0873 Y127.4261 I-0.1990 J0.0000
G03 Y127.0813 I0.0995 J-0.1724
G01 Z-5.7000
G03 X73.3859 Y127.2537 I0.0995 J0.1724
G03 X73.0873 Y127.4261 I-0.1990 J0.0000
G03 Y127.0813 I0.0995 J-0.1724
G01 Z-6.0000
G03 X73.3859 Y127.2537 I0.0995 J0.1724
G03 X73.0873 Y127.4261 I-0.1990 J0.0000
G03 Y127.0813 I0.0995 J-0.1724
G01 Z-6.3000
G03 X73.3859 Y127.2537 I0.0995 J0.1724
G03 X73.0873 Y127.4261 I-0.1990 J0.0000
G03 Y127.0813 I0.0995 J-0.1724
G01 Z-6.6000
G03 X73.3859 Y127.2537 I0.0995 J0.1724
G03 X73.0873 Y127.4261 I-0.1990 J0.0000
G03 Y127.0813 I0.0995 J-0.1724
G01 Z-6.9000
G03 X73.3859 Y127.2537 I0.0995 J0.1724
G03 X73.0873 Y127.4261 I-0.1990 J0.0000
G03 Y127.0813 I0.0995 J-0.1724
G01 Z-7.2000
G03 X73.3859 Y127.2537 I0.0995 J0.1724
G03 X73.0873 Y127.4261 I-0.1990 J0.0000
G03 Y127.0813 I0.0995 J-0.1724
G01 Z-7.5000
G03 X73.3859 Y127.2537 I0.0995 J0.1724
G03 X73.0873 Y127.4261 I-0.1990 J0.0000
G03 Y127.0813 I0.0995 J-0.1724
G01 Z-7.8000
G03 X73.3859 Y127.2537 I0.0995 J0.1724
G03 X73.0873 Y127.4261 I-0.1990 J0.0000
G03 Y127.0813 I0.0995 J-0.1724
G01 Z-8.1000
G03 X73.3859 Y127.2537 I0.0995 J0.1724
G03 X73.0873 Y127.4261 I-0.1990 J0.0000
G03 Y127.0813 I0.0995 J-0.1724
G00 Z5.0000


(No. 3: Hole 13)
G00 X129.4883 Y127.1070 Z5.0000
G00 Z0.5000
G01 Z-0.3000 F250
G03 X129.8213 Y127.1962 I0.1407 J0.1407
G03 X129.5775 Y127.4400 I-0.1923 J0.0515
G03 X129.4883 Y127.1070 I0.0515 J-0.1923
G01 Z-0.6000
G03 X129.8213 Y127.1962 I0.1407 J0.1407
G03 X129.5775 Y127.4400 I-0.1923 J0.0515
G03 X129.4883 Y127.1070 I0.0515 J-0.1923
G01 Z-0.9000
G03 X129.8213 Y127.1962 I0.1407 J0.1407
G03 X129.5775 Y127.4400 I-0.1923 J0.0515
G03 X129.4883 Y127.1070 I0.0515 J-0.1923
G01 Z-1.2000
G03 X129.8213 Y127.1962 I0.1407 J0.1407
G03 X129.5775 Y127.4400 I-0.1923 J0.0515
G03 X129.4883 Y127.1070 I0.0515 J-0.1923
G01 Z-1.5000
G03 X129.8213 Y127.1962 I0.1407 J0.1407
G03 X129.5775 Y127.4400 I-0.1923 J0.0515
G03 X129.4883 Y127.1070 I0.0515 J-0.1923
G01 Z-1.8000
G03 X129.8213 Y127.1962 I0.1407 J0.1407
G03 X129.5775 Y127.4400 I-0.1923 J0.0515
G03 X129.4883 Y127.1070 I0.0515 J-0.1923
G01 Z-2.1000
G03 X129.8213 Y127.1962 I0.1407 J0.1407
G03 X129.5775 Y127.4400 I-0.1923 J0.0515
G03 X129.4883 Y127.1070 I0.0515 J-0.1923
G01 Z-2.4000
G03 X129.8213 Y127.1962 I0.1407 J0.1407
G03 X129.5775 Y127.4400 I-0.1923 J0.0515
G03 X129.4883 Y127.1070 I0.0515 J-0.1923
G01 Z-2.7000
G03 X129.8213 Y127.1962 I0.1407 J0.1407
G03 X129.5775 Y127.4400 I-0.1923 J0.0515
G03 X129.4883 Y127.1070 I0.0515 J-0.1923
G01 Z-3.0000
G03 X129.8213 Y127.1962 I0.1407 J0.1407
G03 X129.5775 Y127.4400 I-0.1923 J0.0515
G03 X129.4883 Y127.1070 I0.0515 J-0.1923
G01 Z-3.3000
G03 X129.8213 Y127.1962 I0.1407 J0.1407
G03 X129.5775 Y127.4400 I-0.1923 J0.0515
G03 X129.4883 Y127.1070 I0.0515 J-0.1923
G01 Z-3.6000
G03 X129.8213 Y127.1962 I0.1407 J0.1407
G03 X129.5775 Y127.4400 I-0.1923 J0.0515
G03 X129.4883 Y127.1070 I0.0515 J-0.1923
G01 Z-3.9000
G03 X129.8213 Y127.1962 I0.1407 J0.1407
G03 X129.5775 Y127.4400 I-0.1923 J0.0515
G03 X129.4883 Y127.1070 I0.0515 J-0.1923
G01 Z-4.2000
G03 X129.8213 Y127.1962 I0.1407 J0.1407
G03 X129.5775 Y127.4400 I-0.1923 J0.0515
G03 X129.4883 Y127.1070 I0.0515 J-0.1923
G01 Z-4.5000
G03 X129.8213 Y127.1962 I0.1407 J0.1407
G03 X129.5775 Y127.4400 I-0.1923 J0.0515
G03 X129.4883 Y127.1070 I0.0515 J-0.1923
G01 Z-4.8000
G03 X129.8213 Y127.1962 I0.1407 J0.1407
G03 X129.5775 Y127.4400 I-0.1923 J0.0515
G03 X129.4883 Y127.1070 I0.0515 J-0.1923
G01 Z-5.1000
G03 X129.8213 Y127.1962 I0.1407 J0.1407
G03 X129.5775 Y127.4400 I-0.1923 J0.0515
G03 X129.4883 Y127.1070 I0.0515 J-0.1923
G01 Z-5.4000
G03 X129.8213 Y127.1962 I0.1407 J0.1407
G03 X129.5775 Y127.4400 I-0.1923 J0.0515
G03 X129.4883 Y127.1070 I0.0515 J-0.1923
G01 Z-5.7000
G03 X129.8213 Y127.1962 I0.1407 J0.1407
G03 X129.5775 Y127.4400 I-0.1923 J0.0515
G03 X129.4883 Y127.1070 I0.0515 J-0.1923
G01 Z-6.0000
G03 X129.8213 Y127.1962 I0.1407 J0.1407
G03 X129.5775 Y127.4400 I-0.1923 J0.0515
G03 X129.4883 Y127.1070 I0.0515 J-0.1923
G01 Z-6.3000
G03 X129.8213 Y127.1962 I0.1407 J0.1407
G03 X129.5775 Y127.4400 I-0.1923 J0.0515
G03 X129.4883 Y127.1070 I0.0515 J-0.1923
G01 Z-6.6000
G03 X129.8213 Y127.1962 I0.1407 J0.1407
G03 X129.5775 Y127.4400 I-0.1923 J0.0515
G03 X129.4883 Y127.1070 I0.0515 J-0.1923
G01 Z-6.9000
G03 X129.8213 Y127.1962 I0.1407 J0.1407
G03 X129.5775 Y127.4400 I-0.1923 J0.0515
G03 X129.4883 Y127.1070 I0.0515 J-0.1923
G01 Z-7.2000
G03 X129.8213 Y127.1962 I0.1407 J0.1407
G03 X129.5775 Y127.4400 I-0.1923 J0.0515
G03 X129.4883 Y127.1070 I0.0515 J-0.1923
G01 Z-7.5000
G03 X129.8213 Y127.1962 I0.1407 J0.1407
G03 X129.5775 Y127.4400 I-0.1923 J0.0515
G03 X129.4883 Y127.1070 I0.0515 J-0.1923
G01 Z-7.8000
G03 X129.8213 Y127.1962 I0.1407 J0.1407
G03 X129.5775 Y127.4400 I-0.1923 J0.0515
G03 X129.4883 Y127.1070 I0.0515 J-0.1923
G01 Z-8.1000
G03 X129.8213 Y127.1962 I0.1407 J0.1407
G03 X129.5775 Y127.4400 I-0.1923 J0.0515
G03 X129.4883 Y127.1070 I0.0515 J-0.1923
G00 Z5.0000


(No. 4: Hole 19)
G00 X192.9944 Y127.2549 Z5.0000
G00 Z0.5000
G01 Z-0.3000 F250
G03 X193.3379 Y127.2849 I0.1631 J0.1141
G03 X193.1402 Y127.5673 I-0.1804 J0.0841
G03 X192.9944 Y127.2549 I0.0173 J-0.1983
G01 Z-0.6000
G03 X193.3379 Y127.2849 I0.1631 J0.1141
G03 X193.1402 Y127.5673 I-0.1804 J0.0841
G03 X192.9944 Y127.2549 I0.0173 J-0.1983
G01 Z-0.9000
G03 X193.3379 Y127.2849 I0.1631 J0.1141
G03 X193.1402 Y127.5673 I-0.1804 J0.0841
G03 X192.9944 Y127.2549 I0.0173 J-0.1983
G01 Z-1.2000
G03 X193.3379 Y127.2849 I0.1631 J0.1141
G03 X193.1402 Y127.5673 I-0.1804 J0.0841
G03 X192.9944 Y127.2549 I0.0173 J-0.1983
G01 Z-1.5000
G03 X193.3379 Y127.2849 I0.1631 J0.1141
G03 X193.1402 Y127.5673 I-0.1804 J0.0841
G03 X192.9944 Y127.2549 I0.0173 J-0.1983
G01 Z-1.8000
G03 X193.3379 Y127.2849 I0.1631 J0.1141
G03 X193.1402 Y127.5673 I-0.1804 J0.0841
G03 X192.9944 Y127.2549 I0.0173 J-0.1983
G01 Z-2.1000
G03 X193.3379 Y127.2849 I0.1631 J0.1141
G03 X193.1402 Y127.5673 I-0.1804 J0.0841
G03 X192.9944 Y127.2549 I0.0173 J-0.1983
G01 Z-2.4000
G03 X193.3379 Y127.2849 I0.1631 J0.1141
G03 X193.1402 Y127.5673 I-0.1804 J0.0841
G03 X192.9944 Y127.2549 I0.0173 J-0.1983
G01 Z-2.7000
G03 X193.3379 Y127.2849 I0.1631 J0.1141
G03 X193.1402 Y127.5673 I-0.1804 J0.0841
G03 X192.9944 Y127.2549 I0.0173 J-0.1983
G01 Z-3.0000
G03 X193.3379 Y127.2849 I0.1631 J0.1141
G03 X193.1402 Y127.5673 I-0.1804 J0.0841
G03 X192.9944 Y127.2549 I0.0173 J-0.1983
G01 Z-3.3000
G03 X193.3379 Y127.2849 I0.1631 J0.1141
G03 X193.1402 Y127.5673 I-0.1804 J0.0841
G03 X192.9944 Y127.2549 I0.0173 J-0.1983
G01 Z-3.6000
G03 X193.3379 Y127.2849 I0.1631 J0.1141
G03 X193.1402 Y127.5673 I-0.1804 J0.0841
G03 X192.9944 Y127.2549 I0.0173 J-0.1983
G01 Z-3.9000
G03 X193.3379 Y127.2849 I0.1631 J0.1141
G03 X193.1402 Y127.5673 I-0.1804 J0.0841
G03 X192.9944 Y127.2549 I0.0173 J-0.1983
G01 Z-4.2000
G03 X193.3379 Y127.2849 I0.1631 J0.1141
G03 X193.1402 Y127.5673 I-0.1804 J0.0841
G03 X192.9944 Y127.2549 I0.0173 J-0.1983
G01 Z-4.5000
G03 X193.3379 Y127.2849 I0.1631 J0.1141
G03 X193.1402 Y127.5673 I-0.1804 J0.0841
G03 X192.9944 Y127.2549 I0.0173 J-0.1983
G01 Z-4.8000
G03 X193.3379 Y127.2849 I0.1631 J0.1141
G03 X193.1402 Y127.5673 I-0.1804 J0.0841
G03 X192.9944 Y127.2549 I0.0173 J-0.1983
G01 Z-5.1000
G03 X193.3379 Y127.2849 I0.1631 J0.1141
G03 X193.1402 Y127.5673 I-0.1804 J0.0841
G03 X192.9944 Y127.2549 I0.0173 J-0.1983
G01 Z-5.4000
G03 X193.3379 Y127.2849 I0.1631 J0.1141
G03 X193.1402 Y127.5673 I-0.1804 J0.0841
G03 X192.9944 Y127.2549 I0.0173 J-0.1983
G01 Z-5.7000
G03 X193.3379 Y127.2849 I0.1631 J0.1141
G03 X193.1402 Y127.5673 I-0.1804 J0.0841
G03 X192.9944 Y127.2549 I0.0173 J-0.1983
G01 Z-6.0000
G03 X193.3379 Y127.2849 I0.1631 J0.1141
G03 X193.1402 Y127.5673 I-0.1804 J0.0841
G03 X192.9944 Y127.2549 I0.0173 J-0.1983
G01 Z-6.3000
G03 X193.3379 Y127.2849 I0.1631 J0.1141
G03 X193.1402 Y127.5673 I-0.1804 J0.0841
G03 X192.9944 Y127.2549 I0.0173 J-0.1983
G01 Z-6.6000
G03 X193.3379 Y127.2849 I0.1631 J0.1141
G03 X193.1402 Y127.5673 I-0.1804 J0.0841
G03 X192.9944 Y127.2549 I0.0173 J-0.1983
G01 Z-6.9000
G03 X193.3379 Y127.2849 I0.1631 J0.1141
G03 X193.1402 Y127.5673 I-0.1804 J0.0841
G03 X192.9944 Y127.2549 I0.0173 J-0.1983
G01 Z-7.2000
G03 X193.3379 Y127.2849 I0.1631 J0.1141
G03 X193.1402 Y127.5673 I-0.1804 J0.0841
G03 X192.9944 Y127.2549 I0.0173 J-0.1983
G01 Z-7.5000
G03 X193.3379 Y127.2849 I0.1631 J0.1141
G03 X193.1402 Y127.5673 I-0.1804 J0.0841
G03 X192.9944 Y127.2549 I0.0173 J-0.1983
G01 Z-7.8000
G03 X193.3379 Y127.2849 I0.1631 J0.1141
G03 X193.1402 Y127.5673 I-0.1804 J0.0841
G03 X192.9944 Y127.2549 I0.0173 J-0.1983
G01 Z-8.1000
G03 X193.3379 Y127.2849 I0.1631 J0.1141
G03 X193.1402 Y127.5673 I-0.1804 J0.0841
G03 X192.9944 Y127.2549 I0.0173 J-0.1983
G00 Z5.0000


(No. 5: Hole 2)
G00 X12.0993 Y102.6252 Z5.0000
G00 Z0.5000
G01 Z-0.3000 F250
G02 X11.6536 Y103.5625 I0.0477 J0.5973
G02 X12.6881 Y103.4799 I0.4934 J-0.3400
G02 X12.0993 Y102.6252 I-0.5411 J-0.2573
G01 Z-0.6000
G02 X11.6536 Y103.5625 I0.0477 J0.5973
G02 X12.6881 Y103.4799 I0.4934 J-0.3400
G02 X12.0993 Y102.6252 I-0.5411 J-0.2573
G01 Z-0.9000
G02 X11.6536 Y103.5625 I0.0477 J0.5973
G02 X12.6881 Y103.4799 I0.4934 J-0.3400
G02 X12.0993 Y102.6252 I-0.5411 J-0.2573
G01 Z-1.2000
G02 X11.6536 Y103.5625 I0.0477 J0.5973
G02 X12.6881 Y103.4799 I0.4934 J-0.3400
G02 X12.0993 Y102.6252 I-0.5411 J-0.2573
G01 Z-1.5000
G02 X11.6536 Y103.5625 I0.0477 J0.5973
G02 X12.6881 Y103.4799 I0.4934 J-0.3400
G02 X12.0993 Y102.6252 I-0.5411 J-0.2573
G01 Z-1.8000
G02 X11.6536 Y103.5625 I0.0477 J0.5973
G02 X12.6881 Y103.4799 I0.4934 J-0.3400
G02 X12.0993 Y102.6252 I-0.5411 J-0.2573
G01 Z-2.1000
G02 X11.6536 Y103.5625 I0.0477 J0.5973
G02 X12.6881 Y103.4799 I0.4934 J-0.3400
G02 X12.0993 Y102.6252 I-0.5411 J-0.2573
G01 Z-2.4000
G02 X11.6536 Y103.5625 I0.0477 J0.5973
G02 X12.6881 Y103.4799 I0.4934 J-0.3400
G02 X12.0993 Y102.6252 I-0.5411 J-0.2573
G01 Z-2.7000
G02 X11.6536 Y103.5625 I0.0477 J0.5973
G02 X12.6881 Y103.4799 I0.4934 J-0.3400
G02 X12.0993 Y102.6252 I-0.5411 J-0.2573
G01 Z-3.0000
G02 X11.6536 Y103.5625 I0.0477 J0.5973
G02 X12.6881 Y103.4799 I0.4934 J-0.3400
G02 X12.0993 Y102.6252 I-0.5411 J-0.2573
G01 Z-3.3000
G02 X11.6536 Y103.5625 I0.0477 J0.5973
G02 X12.6881 Y103.4799 I0.4934 J-0.3400
G02 X12.0993 Y102.6252 I-0.5411 J-0.2573
G01 Z-3.6000
G02 X11.6536 Y103.5625 I0.0477 J0.5973
G02 X12.6881 Y103.4799 I0.4934 J-0.3400
G02 X12.0993 Y102.6252 I-0.5411 J-0.2573
G01 Z-3.9000
G02 X11.6536 Y103.5625 I0.0477 J0.5973
G02 X12.6881 Y103.4799 I0.4934 J-0.3400
G02 X12.0993 Y102.6252 I-0.5411 J-0.2573
G01 Z-4.2000
G02 X11.6536 Y103.5625 I0.0477 J0.5973
G02 X12.6881 Y103.4799 I0.4934 J-0.3400
G02 X12.0993 Y102.6252 I-0.5411 J-0.2573
G01 Z-4.5000
G02 X11.6536 Y103.5625 I0.0477 J0.5973
G02 X12.6881 Y103.4799 I0.4934 J-0.3400
G02 X12.0993 Y102.6252 I-0.5411 J-0.2573
G01 Z-4.8000
G02 X11.6536 Y103.5625 I0.0477 J0.5973
G02 X12.6881 Y103.4799 I0.4934 J-0.3400
G02 X12.0993 Y102.6252 I-0.5411 J-0.2573
G01 Z-5.1000
G02 X11.6536 Y103.5625 I0.0477 J0.5973
G02 X12.6881 Y103.4799 I0.4934 J-0.3400
G02 X12.0993 Y102.6252 I-0.5411 J-0.2573
G01 Z-5.4000
G02 X11.6536 Y103.5625 I0.0477 J0.5973
G02 X12.6881 Y103.4799 I0.4934 J-0.3400
G02 X12.0993 Y102.6252 I-0.5411 J-0.2573
G01 Z-5.7000
G02 X11.6536 Y103.5625 I0.0477 J0.5973
G02 X12.6881 Y103.4799 I0.4934 J-0.3400
G02 X12.0993 Y102.6252 I-0.5411 J-0.2573
G01 Z-6.0000
G02 X11.6536 Y103.5625 I0.0477 J0.5973
G02 X12.6881 Y103.4799 I0.4934 J-0.3400
G02 X12.0993 Y102.6252 I-0.5411 J-0.2573
G01 Z-6.3000
G02 X11.6536 Y103.5625 I0.0477 J0.5973
G02 X12.6881 Y103.4799 I0.4934 J-0.3400
G02 X12.0993 Y102.6252 I-0.5411 J-0.2573
G01 Z-6.6000
G02 X11.6536 Y103.5625 I0.0477 J0.5973
G02 X12.6881 Y103.4799 I0.4934 J-0.3400
G02 X12.0993 Y102.6252 I-0.5411 J-0.2573
G01 Z-6.9000
G02 X11.6536 Y103.5625 I0.0477 J0.5973
G02 X12.6881 Y103.4799 I0.4934 J-0.3400
G02 X12.0993 Y102.6252 I-0.5411 J-0.2573
G01 Z-7.2000
G02 X11.6536 Y103.5625 I0.0477 J0.5973
G02 X12.6881 Y103.4799 I0.4934 J-0.3400
G02 X12.0993 Y102.6252 I-0.5411 J-0.2573
G01 Z-7.5000
G02 X11.6536 Y103.5625 I0.0477 J0.5973
G02 X12.6881 Y103.4799 I0.4934 J-0.3400
G02 X12.0993 Y102.6252 I-0.5411 J-0.2573
G01 Z-7.8000
G02 X11.6536 Y103.5625 I0.0477 J0.5973
G02 X12.6881 Y103.4799 I0.4934 J-0.3400
G02 X12.0993 Y102.6252 I-0.5411 J-0.2573
G01 Z-8.1000
G02 X11.6536 Y103.5625 I0.0477 J0.5973
G02 X12.6881 Y103.4799 I0.4934 J-0.3400
G02 X12.0993 Y102.6252 I-0.5411 J-0.2573
G00 Z5.0000


(No. 6: Hole 3)
G00 X39.0789 Y103.0355 Z5.0000
G00 Z0.5000
G01 Z-0.3000 F250
G03 X39.3430 Y103.2571 I0.0681 J0.1870
G03 X39.0190 Y103.3750 I-0.1960 J-0.0346
G03 X39.0789 Y103.0355 I0.1279 J-0.1525
G01 Z-0.6000
G03 X39.3430 Y103.2571 I0.0681 J0.1870
G03 X39.0190 Y103.3750 I-0.1960 J-0.0346
G03 X39.0789 Y103.0355 I0.1279 J-0.1525
G01 Z-0.9000
G03 X39.3430 Y103.2571 I0.0681 J0.1870
G03 X39.0190 Y103.3750 I-0.1960 J-0.0346
G03 X39.0789 Y103.0355 I0.1279 J-0.1525
G01 Z-1.2000
G03 X39.3430 Y103.2571 I0.0681 J0.1870
G03 X39.0190 Y103.3750 I-0.1960 J-0.0346
G03 X39.0789 Y103.0355 I0.1279 J-0.1525
G01 Z-1.5000
G03 X39.3430 Y103.2571 I0.0681 J0.1870
G03 X39.0190 Y103.3750 I-0.1960 J-0.0346
G03 X39.0789 Y103.0355 I0.1279 J-0.1525
G01 Z-1.8000
G03 X39.3430 Y103.2571 I0.0681 J0.1870
G03 X39.0190 Y103.3750 I-0.1960 J-0.0346
G03 X39.0789 Y103.0355 I0.1279 J-0.1525
G01 Z-2.1000
G03 X39.3430 Y103.2571 I0.0681 J0.1870
G03 X39.0190 Y103.3750 I-0.1960 J-0.0346
G03 X39.0789 Y103.0355 I0.1279 J-0.1525
G01 Z-2.4000
G03 X39.3430 Y103.2571 I0.0681 J0.1870
G03 X39.0190 Y103.3750 I-0.1960 J-0.0346
G03 X39.0789 Y103.0355 I0.1279 J-0.1525
G01 Z-2.7000
G03 X39.3430 Y103.2571 I0.0681 J0.1870
G03 X39.0190 Y103.3750 I-0.1960 J-0.0346
G03 X39.0789 Y103.0355 I0.1279 J-0.1525
G01 Z-3.0000
G03 X39.3430 Y103.2571 I0.0681 J0.1870
G03 X39.0190 Y103.3750 I-0.1960 J-0.0346
G03 X39.0789 Y103.0355 I0.1279 J-0.1525
G01 Z-3.3000
G03 X39.3430 Y103.2571 I0.0681 J0.1870
G03 X39.0190 Y103.3750 I-0.1960 J-0.0346
G03 X39.0789 Y103.0355 I0.1279 J-0.1525
G01 Z-3.6000
G03 X39.3430 Y103.2571 I0.0681 J0.1870
G03 X39.0190 Y103.3750 I-0.1960 J-0.0346
G03 X39.0789 Y103.0355 I0.1279 J-0.1525
G01 Z-3.9000
G03 X39.3430 Y103.2571 I0.0681 J0.1870
G03 X39.0190 Y103.3750 I-0.1960 J-0.0346
G03 X39.0789 Y103.0355 I0.1279 J-0.1525
G01 Z-4.2000
G03 X39.3430 Y103.2571 I0.0681 J0.1870
G03 X39.0190 Y103.3750 I-0.1960 J-0.0346
G03 X39.0789 Y103.0355 I0.1279 J-0.1525
G01 Z-4.5000
G03 X39.3430 Y103.2571 I0.0681 J0.1870
G03 X39.0190 Y103.3750 I-0.1960 J-0.0346
G03 X39.0789 Y103.0355 I0.1279 J-0.1525
G01 Z-4.8000
G03 X39.3430 Y103.2571 I0.0681 J0.1870
G03 X39.0190 Y103.3750 I-0.1960 J-0.0346
G03 X39.0789 Y103.0355 I0.1279 J-0.1525
G01 Z-5.1000
G03 X39.3430 Y103.2571 I0.0681 J0.1870
G03 X39.0190 Y103.3750 I-0.1960 J-0.0346
G03 X39.0789 Y103.0355 I0.1279 J-0.1525
G01 Z-5.4000
G03 X39.3430 Y103.2571 I0.0681 J0.1870
G03 X39.0190 Y103.3750 I-0.1960 J-0.0346
G03 X39.0789 Y103.0355 I0.1279 J-0.1525
G01 Z-5.7000
G03 X39.3430 Y103.2571 I0.0681 J0.1870
G03 X39.0190 Y103.3750 I-0.1960 J-0.0346
G03 X39.0789 Y103.0355 I0.1279 J-0.1525
G01 Z-6.0000
G03 X39.3430 Y103.2571 I0.0681 J0.1870
G03 X39.0190 Y103.3750 I-0.1960 J-0.0346
G03 X39.0789 Y103.0355 I0.1279 J-0.1525
G01 Z-6.3000
G03 X39.3430 Y103.2571 I0.0681 J0.1870
G03 X39.0190 Y103.3750 I-0.1960 J-0.0346
G03 X39.0789 Y103.0355 I0.1279 J-0.1525
G01 Z-6.6000
G03 X39.3430 Y103.2571 I0.0681 J0.1870
G03 X39.0190 Y103.3750 I-0.1960 J-0.0346
G03 X39.0789 Y103.0355 I0.1279 J-0.1525
G01 Z-6.9000
G03 X39.3430 Y103.2571 I0.0681 J0.1870
G03 X39.0190 Y103.3750 I-0.1960 J-0.0346
G03 X39.0789 Y103.0355 I0.1279 J-0.1525
G01 Z-7.2000
G03 X39.3430 Y103.2571 I0.0681 J0.1870
G03 X39.0190 Y103.3750 I-0.1960 J-0.0346
G03 X39.0789 Y103.0355 I0.1279 J-0.1525
G01 Z-7.5000
G03 X39.3430 Y103.2571 I0.0681 J0.1870
G03 X39.0190 Y103.3750 I-0.1960 J-0.0346
G03 X39.0789 Y103.0355 I0.1279 J-0.1525
G01 Z-7.8000
G03 X39.3430 Y103.2571 I0.0681 J0.1870
G03 X39.0190 Y103.3750 I-0.1960 J-0.0346
G03 X39.0789 Y103.0355 I0.1279 J-0.1525
G01 Z-8.1000
G03 X39.3430 Y103.2571 I0.0681 J0.1870
G03 X39.0190 Y103.3750 I-0.1960 J-0.0346
G03 X39.0789 Y103.0355 I0.1279 J-0.1525
G00 Z5.0000


(No. 7: Hole 9)
G00 X60.3732 Y102.5682 Z5.0000
G00 Z0.5000
G01 Z-0.3000 F250
G02 X60.4016 Y103.6056 I0.3137 J0.5105
G02 X61.2858 Y103.0623 I0.2853 J-0.5269
G02 X60.3732 Y102.5682 I-0.5990 J0.0164
G01 Z-0.6000
G02 X60.4016 Y103.6056 I0.3137 J0.5105
G02 X61.2858 Y103.0623 I0.2853 J-0.5269
G02 X60.3732 Y102.5682 I-0.5990 J0.0164
G01 Z-0.9000
G02 X60.4016 Y103.6056 I0.3137 J0.5105
G02 X61.2858 Y103.0623 I0.2853 J-0.5269
G02 X60.3732 Y102.5682 I-0.5990 J0.0164
G01 Z-1.2000
G02 X60.4016 Y103.6056 I0.3137 J0.5105
G02 X61.2858 Y103.0623 I0.2853 J-0.5269
G02 X60.3732 Y102.5682 I-0.5990 J0.0164
G01 Z-1.5000
G02 X60.4016 Y103.6056 I0.3137 J0.5105
G02 X61.2858 Y103.0623 I0.2853 J-0.5269
G02 X60.3732 Y102.5682 I-0.5990 J0.0164
G01 Z-1.8000
G02 X60.4016 Y103.6056 I0.3137 J0.5105
G02 X61.2858 Y103.0623 I0.2853 J-0.5269
G02 X60.3732 Y102.5682 I-0.5990 J0.0164
G01 Z-2.1000
G02 X60.4016 Y103.6056 I0.3137 J0.5105
G02 X61.2858 Y103.0623 I0.2853 J-0.5269
G02 X60.3732 Y102.5682 I-0.5990 J0.0164
G01 Z-2.4000
G02 X60.4016 Y103.6056 I0.3137 J0.5105
G02 X61.2858 Y103.0623 I0.2853 J-0.5269
G02 X60.3732 Y102.5682 I-0.5990 J0.0164
G01 Z-2.7000
G02 X60.4016 Y103.6056 I0.3137 J0.5105
G02 X61.2858 Y103.0623 I0.2853 J-0.5269
G02 X60.3732 Y102.5682 I-0.5990 J0.0164
G01 Z-3.0000
G02 X60.4016 Y103.6056 I0.3137 J0.5105
G02 X61.2858 Y103.0623 I0.2853 J-0.5269
G02 X60.3732 Y102.5682 I-0.5990 J0.0164
G01 Z-3.3000
G02 X60.4016 Y103.6056 I0.3137 J0.5105
G02 X61.2858 Y103.0623 I0.2853 J-0.5269
G02 X60.3732 Y102.5682 I-0.5990 J0.0164
G01 Z-3.6000
G02 X60.4016 Y103.6056 I0.3137 J0.5105
G02 X61.2858 Y103.0623 I0.2853 J-0.5269
G02 X60.3732 Y102.5682 I-0.5990 J0.0164
G01 Z-3.9000
G02 X60.4016 Y103.6056 I0.3137 J0.5105
G02 X61.2858 Y103.0623 I0.2853 J-0.5269
G02 X60.3732 Y102.5682 I-0.5990 J0.0164
G01 Z-4.2000
G02 X60.4016 Y103.6056 I0.3137 J0.5105
G02 X61.2858 Y103.0623 I0.2853 J-0.5269
G02 X60.3732 Y102.5682 I-0.5990 J0.0164
G01 Z-4.5000
G02 X60.4016 Y103.6056 I0.3137 J0.5105
G02 X61.2858 Y103.0623 I0.2853 J-0.5269
G02 X60.3732 Y102.5682 I-0.5990 J0.0164
G01 Z-4.8000
G02 X60.4016 Y103.6056 I0.3137 J0.5105
G02 X61.2858 Y103.0623 I0.2853 J-0.5269
G02 X60.3732 Y102.5682 I-0.5990 J0.0164
G01 Z-5.1000
G02 X60.4016 Y103.6056 I0.3137 J0.5105
G02 X61.2858 Y103.0623 I0.2853 J-0.5269
G02 X60.3732 Y102.5682 I-0.5990 J0.0164
G01 Z-5.4000
G02 X60.4016 Y103.6056 I0.3137 J0.5105
G02 X61.2858 Y103.0623 I0.2853 J-0.5269
G02 X60.3732 Y102.5682 I-0.5990 J0.0164
G01 Z-5.7000
G02 X60.4016 Y103.6056 I0.3137 J0.5105
G02 X61.2858 Y103.0623 I0.2853 J-0.5269
G02 X60.3732 Y102.5682 I-0.5990 J0.0164
G01 Z-6.0000
G02 X60.4016 Y103.6056 I0.3137 J0.5105
G02 X61.2858 Y103.0623 I0.2853 J-0.5269
G02 X60.3732 Y102.5682 I-0.5990 J0.0164
G01 Z-6.3000
G02 X60.4016 Y103.6056 I0.3137 J0.5105
G02 X61.2858 Y103.0623 I0.2853 J-0.5269
G02 X60.3732 Y102.5682 I-0.5990 J0.0164
G01 Z-6.6000
G02 X60.4016 Y103.6056 I0.3137 J0.5105
G02 X61.2858 Y103.0623 I0.2853 J-0.5269
G02 X60.3732 Y102.5682 I-0.5990 J0.0164
G01 Z-6.9000
G02 X60.4016 Y103.6056 I0.3137 J0.5105
G02 X61.2858 Y103.0623 I0.2853 J-0.5269
G02 X60.3732 Y102.5682 I-0.5990 J0.0164
G01 Z-7.2000
G02 X60.4016 Y103.6056 I0.3137 J0.5105
G02 X61.2858 Y103.0623 I0.2853 J-0.5269
G02 X60.3732 Y102.5682 I-0.5990 J0.0164
G01 Z-7.5000
G02 X60.4016 Y103.6056 I0.3137 J0.5105
G02 X61.2858 Y103.0623 I0.2853 J-0.5269
G02 X60.3732 Y102.5682 I-0.5990 J0.0164
G01 Z-7.8000
G02 X60.4016 Y103.6056 I0.3137 J0.5105
G02 X61.2858 Y103.0623 I0.2853 J-0.5269
G02 X60.3732 Y102.5682 I-0.5990 J0.0164
G01 Z-8.1000
G02 X60.4016 Y103.6056 I0.3137 J0.5105
G02 X61.2858 Y103.0623 I0.2853 J-0.5269
G02 X60.3732 Y102.5682 I-0.5990 J0.0164
G00 Z5.0000


(No. 8: Hole 10)
G00 X87.5589 Y102.9262 Z5.0000
G00 Z0.5000
G01 Z-0.3000 F250
G03 X87.8829 Y103.0442 I0.1279 J0.1525
G03 X87.6187 Y103.2657 I-0.1960 J0.0345
G03 X87.5589 Y102.9262 I0.0681 J-0.1870
G01 Z-0.6000
G03 X87.8829 Y103.0442 I0.1279 J0.1525
G03 X87.6187 Y103.2657 I-0.1960 J0.0345
G03 X87.5589 Y102.9262 I0.0681 J-0.1870
G01 Z-0.9000
G03 X87.8829 Y103.0442 I0.1279 J0.1525
G03 X87.6187 Y103.2657 I-0.1960 J0.0345
G03 X87.5589 Y102.9262 I0.0681 J-0.1870
G01 Z-1.2000
G03 X87.8829 Y103.0442 I0.1279 J0.1525
G03 X87.6187 Y103.2657 I-0.1960 J0.0345
G03 X87.5589 Y102.9262 I0.0681 J-0.1870
G01 Z-1.5000
G03 X87.8829 Y103.0442 I0.1279 J0.1525
G03 X87.6187 Y103.2657 I-0.1960 J0.0345
G03 X87.5589 Y102.9262 I0.0681 J-0.1870
G01 Z-1.8000
G03 X87.8829 Y103.0442 I0.1279 J0.1525
G03 X87.6187 Y103.2657 I-0.1960 J0.0345
G03 X87.5589 Y102.9262 I0.0681 J-0.1870
G01 Z-2.1000
G03 X87.8829 Y103.0442 I0.1279 J0.1525
G03 X87.6187 Y103.2657 I-0.1960 J0.0345
G03 X87.5589 Y102.9262 I0.0681 J-0.1870
G01 Z-2.4000
G03 X87.8829 Y103.0442 I0.1279 J0.1525
G03 X87.6187 Y103.2657 I-0.1960 J0.0345
G03 X87.5589 Y102.9262 I0.0681 J-0.1870
G01 Z-2.7000
G03 X87.8829 Y103.0442 I0.1279 J0.1525
G03 X87.6187 Y103.2657 I-0.1960 J0.0345
G03 X87.5589 Y102.9262 I0.0681 J-0.1870
G01 Z-3.0000
G03 X87.8829 Y103.0442 I0.1279 J0.1525
G03 X87.6187 Y103.2657 I-0.1960 J0.0345
G03 X87.5589 Y102.9262 I0.0681 J-0.1870
G01 Z-3.3000
G03 X87.8829 Y103.0442 I0.1279 J0.1525
G03 X87.6187 Y103.2657 I-0.1960 J0.0345
G03 X87.5589 Y102.9262 I0.0681 J-0.1870
G01 Z-3.6000
G03 X87.8829 Y103.0442 I0.1279 J0.1525
G03 X87.6187 Y103.2657 I-0.1960 J0.0345
G03 X87.5589 Y102.9262 I0.0681 J-0.1870
G01 Z-3.9000
G03 X87.8829 Y103.0442 I0.1279 J0.1525
G03 X87.6187 Y103.2657 I-0.1960 J0.0345
G03 X87.5589 Y102.9262 I0.0681 J-0.1870
G01 Z-4.2000
G03 X87.8829 Y103.0442 I0.1279 J0.1525
G03 X87.6187 Y103.2657 I-0.1960 J0.0345
G03 X87.5589 Y102.9262 I0.0681 J-0.1870
G01 Z-4.5000
G03 X87.8829 Y103.0442 I0.1279 J0.1525
G03 X87.6187 Y103.2657 I-0.1960 J0.0345
G03 X87.5589 Y102.9262 I0.0681 J-0.1870
G01 Z-4.8000
G03 X87.8829 Y103.0442 I0.1279 J0.1525
G03 X87.6187 Y103.2657 I-0.1960 J0.0345
G03 X87.5589 Y102.9262 I0.0681 J-0.1870
G01 Z-5.1000
G03 X87.8829 Y103.0442 I0.1279 J0.1525
G03 X87.6187 Y103.2657 I-0.1960 J0.0345
G03 X87.5589 Y102.9262 I0.0681 J-0.1870
G01 Z-5.4000
G03 X87.8829 Y103.0442 I0.1279 J0.1525
G03 X87.6187 Y103.2657 I-0.1960 J0.0345
G03 X87.5589 Y102.9262 I0.0681 J-0.1870
G01 Z-5.7000
G03 X87.8829 Y103.0442 I0.1279 J0.1525
G03 X87.6187 Y103.2657 I-0.1960 J0.0345
G03 X87.5589 Y102.9262 I0.0681 J-0.1870
G01 Z-6.0000
G03 X87.8829 Y103.0442 I0.1279 J0.1525
G03 X87.6187 Y103.2657 I-0.1960 J0.0345
G03 X87.5589 Y102.9262 I0.0681 J-0.1870
G01 Z-6.3000
G03 X87.8829 Y103.0442 I0.1279 J0.1525
G03 X87.6187 Y103.2657 I-0.1960 J0.0345
G03 X87.5589 Y102.9262 I0.0681 J-0.1870
G01 Z-6.6000
G03 X87.8829 Y103.0442 I0.1279 J0.1525
G03 X87.6187 Y103.2657 I-0.1960 J0.0345
G03 X87.5589 Y102.9262 I0.0681 J-0.1870
G01 Z-6.9000
G03 X87.8829 Y103.0442 I0.1279 J0.1525
G03 X87.6187 Y103.2657 I-0.1960 J0.0345
G03 X87.5589 Y102.9262 I0.0681 J-0.1870
G01 Z-7.2000
G03 X87.8829 Y103.0442 I0.1279 J0.1525
G03 X87.6187 Y103.2657 I-0.1960 J0.0345
G03 X87.5589 Y102.9262 I0.0681 J-0.1870
G01 Z-7.5000
G03 X87.8829 Y103.0442 I0.1279 J0.1525
G03 X87.6187 Y103.2657 I-0.1960 J0.0345
G03 X87.5589 Y102.9262 I0.0681 J-0.1870
G01 Z-7.8000
G03 X87.8829 Y103.0442 I0.1279 J0.1525
G03 X87.6187 Y103.2657 I-0.1960 J0.0345
G03 X87.5589 Y102.9262 I0.0681 J-0.1870
G01 Z-8.1000
G03 X87.8829 Y103.0442 I0.1279 J0.1525
G03 X87.6187 Y103.2657 I-0.1960 J0.0345
G03 X87.5589 Y102.9262 I0.0681 J-0.1870
G00 Z5.0000


(No. 9: Hole 14)
G00 X111.1729 Y102.6841 Z5.0000
G00 Z0.5000
G01 Z-0.3000 F250
G02 X111.5205 Y103.6620 I0.4561 J0.3886
G02 X112.1936 Y102.8720 I0.1085 J-0.5893
G02 X111.1729 Y102.6841 I-0.5646 J0.2007
G01 Z-0.6000
G02 X111.5205 Y103.6620 I0.4561 J0.3886
G02 X112.1936 Y102.8720 I0.1085 J-0.5893
G02 X111.1729 Y102.6841 I-0.5646 J0.2007
G01 Z-0.9000
G02 X111.5205 Y103.6620 I0.4561 J0.3886
G02 X112.1936 Y102.8720 I0.1085 J-0.5893
G02 X111.1729 Y102.6841 I-0.5646 J0.2007
G01 Z-1.2000
G02 X111.5205 Y103.6620 I0.4561 J0.3886
G02 X112.1936 Y102.8720 I0.1085 J-0.5893
G02 X111.1729 Y102.6841 I-0.5646 J0.2007
G01 Z-1.5000
G02 X111.5205 Y103.6620 I0.4561 J0.3886
G02 X112.1936 Y102.8720 I0.1085 J-0.5893
G02 X111.1729 Y102.6841 I-0.5646 J0.2007
G01 Z-1.8000
G02 X111.5205 Y103.6620 I0.4561 J0.3886
G02 X112.1936 Y102.8720 I0.1085 J-0.5893
G02 X111.1729 Y102.6841 I-0.5646 J0.2007
G01 Z-2.1000
G02 X111.5205 Y103.6620 I0.4561 J0.3886
G02 X112.1936 Y102.8720 I0.1085 J-0.5893
G02 X111.1729 Y102.6841 I-0.5646 J0.2007
G01 Z-2.4000
G02 X111.5205 Y103.6620 I0.4561 J0.3886
G02 X112.1936 Y102.8720 I0.1085 J-0.5893
G02 X111.1729 Y102.6841 I-0.5646 J0.2007
G01 Z-2.7000
G02 X111.5205 Y103.6620 I0.4561 J0.3886
G02 X112.1936 Y102.8720 I0.1085 J-0.5893
G02 X111.1729 Y102.6841 I-0.5646 J0.2007
G01 Z-3.0000
G02 X111.5205 Y103.6620 I0.4561 J0.3886
G02 X112.1936 Y102.8720 I0.1085 J-0.5893
G02 X111.1729 Y102.6841 I-0.5646 J0.2007
G01 Z-3.3000
G02 X111.5205 Y103.6620 I0.4561 J0.3886
G02 X112.1936 Y102.8720 I0.1085 J-0.5893
G02 X111.1729 Y102.6841 I-0.5646 J0.2007
G01 Z-3.6000
G02 X111.5205 Y103.6620 I0.4561 J0.3886
G02 X112.1936 Y102.8720 I0.1085 J-0.5893
G02 X111.1729 Y102.6841 I-0.5646 J0.2007
G01 Z-3.9000
G02 X111.5205 Y103.6620 I0.4561 J0.3886
G02 X112.1936 Y102.8720 I0.1085 J-0.5893
G02 X111.1729 Y102.6841 I-0.5646 J0.2007
G01 Z-4.2000
G02 X111.5205 Y103.6620 I0.4561 J0.3886
G02 X112.1936 Y102.8720 I0.1085 J-0.5893
G02 X111.1729 Y102.6841 I-0.5646 J0.2007
G01 Z-4.5000
G02 X111.5205 Y103.6620 I0.4561 J0.3886
G02 X112.1936 Y102.8720 I0.1085 J-0.5893
G02 X111.1729 Y102.6841 I-0.5646 J0.2007
G01 Z-4.8000
G02 X111.5205 Y103.6620 I0.4561 J0.3886
G02 X112.1936 Y102.8720 I0.1085 J-0.5893
G02 X111.1729 Y102.6841 I-0.5646 J0.2007
G01 Z-5.1000
G02 X111.5205 Y103.6620 I0.4561 J0.3886
G02 X112.1936 Y102.8720 I0.1085 J-0.5893
G02 X111.1729 Y102.6841 I-0.5646 J0.2007
G01 Z-5.4000
G02 X111.5205 Y103.6620 I0.4561 J0.3886
G02 X112.1936 Y102.8720 I0.1085 J-0.5893
G02 X111.1729 Y102.6841 I-0.5646 J0.2007
G01 Z-5.7000
G02 X111.5205 Y103.6620 I0.4561 J0.3886
G02 X112.1936 Y102.8720 I0.1085 J-0.5893
G02 X111.1729 Y102.6841 I-0.5646 J0.2007
G01 Z-6.0000
G02 X111.5205 Y103.6620 I0.4561 J0.3886
G02 X112.1936 Y102.8720 I0.1085 J-0.5893
G02 X111.1729 Y102.6841 I-0.5646 J0.2007
G01 Z-6.3000
G02 X111.5205 Y103.6620 I0.4561 J0.3886
G02 X112.1936 Y102.8720 I0.1085 J-0.5893
G02 X111.1729 Y102.6841 I-0.5646 J0.2007
G01 Z-6.6000
G02 X111.5205 Y103.6620 I0.4561 J0.3886
G02 X112.1936 Y102.8720 I0.1085 J-0.5893
G02 X111.1729 Y102.6841 I-0.5646 J0.2007
G01 Z-6.9000
G02 X111.5205 Y103.6620 I0.4561 J0.3886
G02 X112.1936 Y102.8720 I0.1085 J-0.5893
G02 X111.1729 Y102.6841 I-0.5646 J0.2007
G01 Z-7.2000
G02 X111.5205 Y103.6620 I0.4561 J0.3886
G02 X112.1936 Y102.8720 I0.1085 J-0.5893
G02 X111.1729 Y102.6841 I-0.5646 J0.2007
G01 Z-7.5000
G02 X111.5205 Y103.6620 I0.4561 J0.3886
G02 X112.1936 Y102.8720 I0.1085 J-0.5893
G02 X111.1729 Y102.6841 I-0.5646 J0.2007
G01 Z-7.8000
G02 X111.5205 Y103.6620 I0.4561 J0.3886
G02 X112.1936 Y102.8720 I0.1085 J-0.5893
G02 X111.1729 Y102.6841 I-0.5646 J0.2007
G01 Z-8.1000
G02 X111.5205 Y103.6620 I0.4561 J0.3886
G02 X112.1936 Y102.8720 I0.1085 J-0.5893
G02 X111.1729 Y102.6841 I-0.5646 J0.2007
G00 Z5.0000


(No. 10: Hole 15)
G00 X147.4660 Y102.9586 Z5.0000
G00 Z0.5000
G01 Z-0.3000 F250
G03 X147.8094 Y102.9887 I0.1630 J0.1142
G03 X147.6116 Y103.2710 I-0.1804 J0.0841
G03 X147.4660 Y102.9586 I0.0174 J-0.1983
G01 Z-0.6000
G03 X147.8094 Y102.9887 I0.1630 J0.1142
G03 X147.6116 Y103.2710 I-0.1804 J0.0841
G03 X147.4660 Y102.9586 I0.0174 J-0.1983
G01 Z-0.9000
G03 X147.8094 Y102.9887 I0.1630 J0.1142
G03 X147.6116 Y103.2710 I-0.1804 J0.0841
G03 X147.4660 Y102.9586 I0.0174 J-0.1983
G01 Z-1.2000
G03 X147.8094 Y102.9887 I0.1630 J0.1142
G03 X147.6116 Y103.2710 I-0.1804 J0.0841
G03 X147.4660 Y102.9586 I0.0174 J-0.1983
G01 Z-1.5000
G03 X147.8094 Y102.9887 I0.1630 J0.1142
G03 X147.6116 Y103.2710 I-0.1804 J0.0841
G03 X147.4660 Y102.9586 I0.0174 J-0.1983
G01 Z-1.8000
G03 X147.8094 Y102.9887 I0.1630 J0.1142
G03 X147.6116 Y103.2710 I-0.1804 J0.0841
G03 X147.4660 Y102.9586 I0.0174 J-0.1983
G01 Z-2.1000
G03 X147.8094 Y102.9887 I0.1630 J0.1142
G03 X147.6116 Y103.2710 I-0.1804 J0.0841
G03 X147.4660 Y102.9586 I0.0174 J-0.1983
G01 Z-2.4000
G03 X147.8094 Y102.9887 I0.1630 J0.1142
G03 X147.6116 Y103.2710 I-0.1804 J0.0841
G03 X147.4660 Y102.9586 I0.0174 J-0.1983
G01 Z-2.7000
G03 X147.8094 Y102.9887 I0.1630 J0.1142
G03 X147.6116 Y103.2710 I-0.1804 J0.0841
G03 X147.4660 Y102.9586 I0.0174 J-0.1983
G01 Z-3.0000
G03 X147.8094 Y102.9887 I0.1630 J0.1142
G03 X147.6116 Y103.2710 I-0.1804 J0.0841
G03 X147.4660 Y102.9586 I0.0174 J-0.1983
G01 Z-3.3000
G03 X147.8094 Y102.9887 I0.1630 J0.1142
G03 X147.6116 Y103.2710 I-0.1804 J0.0841
G03 X147.4660 Y102.9586 I0.0174 J-0.1983
G01 Z-3.6000
G03 X147.8094 Y102.9887 I0.1630 J0.1142
G03 X147.6116 Y103.2710 I-0.1804 J0.0841
G03 X147.4660 Y102.9586 I0.0174 J-0.1983
G01 Z-3.9000
G03 X147.8094 Y102.9887 I0.1630 J0.1142
G03 X147.6116 Y103.2710 I-0.1804 J0.0841
G03 X147.4660 Y102.9586 I0.0174 J-0.1983
G01 Z-4.2000
G03 X147.8094 Y102.9887 I0.1630 J0.1142
G03 X147.6116 Y103.2710 I-0.1804 J0.0841
G03 X147.4660 Y102.9586 I0.0174 J-0.1983
G01 Z-4.5000
G03 X147.8094 Y102.9887 I0.1630 J0.1142
G03 X147.6116 Y103.2710 I-0.1804 J0.0841
G03 X147.4660 Y102.9586 I0.0174 J-0.1983
G01 Z-4.8000
G03 X147.8094 Y102.9887 I0.1630 J0.1142
G03 X147.6116 Y103.2710 I-0.1804 J0.0841
G03 X147.4660 Y102.9586 I0.0174 J-0.1983
G01 Z-5.1000
G03 X147.8094 Y102.9887 I0.1630 J0.1142
G03 X147.6116 Y103.2710 I-0.1804 J0.0841
G03 X147.4660 Y102.9586 I0.0174 J-0.1983
G01 Z-5.4000
G03 X147.8094 Y102.9887 I0.1630 J0.1142
G03 X147.6116 Y103.2710 I-0.1804 J0.0841
G03 X147.4660 Y102.9586 I0.0174 J-0.1983
G01 Z-5.7000
G03 X147.8094 Y102.9887 I0.1630 J0.1142
G03 X147.6116 Y103.2710 I-0.1804 J0.0841
G03 X147.4660 Y102.9586 I0.0174 J-0.1983
G01 Z-6.0000
G03 X147.8094 Y102.9887 I0.1630 J0.1142
G03 X147.6116 Y103.2710 I-0.1804 J0.0841
G03 X147.4660 Y102.9586 I0.0174 J-0.1983
G01 Z-6.3000
G03 X147.8094 Y102.9887 I0.1630 J0.1142
G03 X147.6116 Y103.2710 I-0.1804 J0.0841
G03 X147.4660 Y102.9586 I0.0174 J-0.1983
G01 Z-6.6000
G03 X147.8094 Y102.9887 I0.1630 J0.1142
G03 X147.6116 Y103.2710 I-0.1804 J0.0841
G03 X147.4660 Y102.9586 I0.0174 J-0.1983
G01 Z-6.9000
G03 X147.8094 Y102.9887 I0.1630 J0.1142
G03 X147.6116 Y103.2710 I-0.1804 J0.0841
G03 X147.4660 Y102.9586 I0.0174 J-0.1983
G01 Z-7.2000
G03 X147.8094 Y102.9887 I0.1630 J0.1142
G03 X147.6116 Y103.2710 I-0.1804 J0.0841
G03 X147.4660 Y102.9586 I0.0174 J-0.1983
G01 Z-7.5000
G03 X147.8094 Y102.9887 I0.1630 J0.1142
G03 X147.6116 Y103.2710 I-0.1804 J0.0841
G03 X147.4660 Y102.9586 I0.0174 J-0.1983
G01 Z-7.8000
G03 X147.8094 Y102.9887 I0.1630 J0.1142
G03 X147.6116 Y103.2710 I-0.1804 J0.0841
G03 X147.4660 Y102.9586 I0.0174 J-0.1983
G01 Z-8.1000
G03 X147.8094 Y102.9887 I0.1630 J0.1142
G03 X147.6116 Y103.2710 I-0.1804 J0.0841
G03 X147.4660 Y102.9586 I0.0174 J-0.1983
G00 Z5.0000


(No. 11: Hole 21)
G00 X174.6462 Y102.8816 Z5.0000
G00 Z0.5000
G01 Z-0.3000 F250
G02 X175.1425 Y103.7930 I0.5113 J0.3125
G02 X175.6837 Y102.9075 I0.0150 J-0.5990
G02 X174.6462 Y102.8816 I-0.5262 J0.2865
G01 Z-0.6000
G02 X175.1425 Y103.7930 I0.5113 J0.3125
G02 X175.6837 Y102.9075 I0.0150 J-0.5990
G02 X174.6462 Y102.8816 I-0.5262 J0.2865
G01 Z-0.9000
G02 X175.1425 Y103.7930 I0.5113 J0.3125
G02 X175.6837 Y102.9075 I0.0150 J-0.5990
G02 X174.6462 Y102.8816 I-0.5262 J0.2865
G01 Z-1.2000
G02 X175.1425 Y103.7930 I0.5113 J0.3125
G02 X175.6837 Y102.9075 I0.0150 J-0.5990
G02 X174.6462 Y102.8816 I-0.5262 J0.2865
G01 Z-1.5000
G02 X175.1425 Y103.7930 I0.5113 J0.3125
G02 X175.6837 Y102.9075 I0.0150 J-0.5990
G02 X174.6462 Y102.8816 I-0.5262 J0.2865
G01 Z-1.8000
G02 X175.1425 Y103.7930 I0.5113 J0.3125
G02 X175.6837 Y102.9075 I0.0150 J-0.5990
G02 X174.6462 Y102.8816 I-0.5262 J0.2865
G01 Z-2.1000
G02 X175.1425 Y103.7930 I0.5113 J0.3125
G02 X175.6837 Y102.9075 I0.0150 J-0.5990
G02 X174.6462 Y102.8816 I-0.5262 J0.2865
G01 Z-2.4000
G02 X175.1425 Y103.7930 I0.5113 J0.3125
G02 X175.6837 Y102.9075 I0.0150 J-0.5990
G02 X174.6462 Y102.8816 I-0.5262 J0.2865
G01 Z-2.7000
G02 X175.1425 Y103.7930 I0.5113 J0.3125
G02 X175.6837 Y102.9075 I0.0150 J-0.5990
G02 X174.6462 Y102.8816 I-0.5262 J0.2865
G01 Z-3.0000
G02 X175.1425 Y103.7930 I0.5113 J0.3125
G02 X175.6837 Y102.9075 I0.0150 J-0.5990
G02 X174.6462 Y102.8816 I-0.5262 J0.2865
G01 Z-3.3000
G02 X175.1425 Y103.7930 I0.5113 J0.3125
G02 X175.6837 Y102.9075 I0.0150 J-0.5990
G02 X174.6462 Y102.8816 I-0.5262 J0.2865
G01 Z-3.6000
G02 X175.1425 Y103.7930 I0.5113 J0.3125
G02 X175.6837 Y102.9075 I0.0150 J-0.5990
G02 X174.6462 Y102.8816 I-0.5262 J0.2865
G01 Z-3.9000
G02 X175.1425 Y103.7930 I0.5113 J0.3125
G02 X175.6837 Y102.9075 I0.0150 J-0.5990
G02 X174.6462 Y102.8816 I-0.5262 J0.2865
G01 Z-4.2000
G02 X175.1425 Y103.7930 I0.5113 J0.3125
G02 X175.6837 Y102.9075 I0.0150 J-0.5990
G02 X174.6462 Y102.8816 I-0.5262 J0.2865
G01 Z-4.5000
G02 X175.1425 Y103.7930 I0.5113 J0.3125
G02 X175.6837 Y102.9075 I0.0150 J-0.5990
G02 X174.6462 Y102.8816 I-0.5262 J0.2865
G01 Z-4.8000
G02 X175.1425 Y103.7930 I0.5113 J0.3125
G02 X175.6837 Y102.9075 I0.0150 J-0.5990
G02 X174.6462 Y102.8816 I-0.5262 J0.2865
G01 Z-5.1000
G02 X175.1425 Y103.7930 I0.5113 J0.3125
G02 X175.6837 Y102.9075 I0.0150 J-0.5990
G02 X174.6462 Y102.8816 I-0.5262 J0.2865
G01 Z-5.4000
G02 X175.1425 Y103.7930 I0.5113 J0.3125
G02 X175.6837 Y102.9075 I0.0150 J-0.5990
G02 X174.6462 Y102.8816 I-0.5262 J0.2865
G01 Z-5.7000
G02 X175.1425 Y103.7930 I0.5113 J0.3125
G02 X175.6837 Y102.9075 I0.0150 J-0.5990
G02 X174.6462 Y102.8816 I-0.5262 J0.2865
G01 Z-6.0000
G02 X175.1425 Y103.7930 I0.5113 J0.3125
G02 X175.6837 Y102.9075 I0.0150 J-0.5990
G02 X174.6462 Y102.8816 I-0.5262 J0.2865
G01 Z-6.3000
G02 X175.1425 Y103.7930 I0.5113 J0.3125
G02 X175.6837 Y102.9075 I0.0150 J-0.5990
G02 X174.6462 Y102.8816 I-0.5262 J0.2865
G01 Z-6.6000
G02 X175.1425 Y103.7930 I0.5113 J0.3125
G02 X175.6837 Y102.9075 I0.0150 J-0.5990
G02 X174.6462 Y102.8816 I-0.5262 J0.2865
G01 Z-6.9000
G02 X175.1425 Y103.7930 I0.5113 J0.3125
G02 X175.6837 Y102.9075 I0.0150 J-0.5990
G02 X174.6462 Y102.8816 I-0.5262 J0.2865
G01 Z-7.2000
G02 X175.1425 Y103.7930 I0.5113 J0.3125
G02 X175.6837 Y102.9075 I0.0150 J-0.5990
G02 X174.6462 Y102.8816 I-0.5262 J0.2865
G01 Z-7.5000
G02 X175.1425 Y103.7930 I0.5113 J0.3125
G02 X175.6837 Y102.9075 I0.0150 J-0.5990
G02 X174.6462 Y102.8816 I-0.5262 J0.2865
G01 Z-7.8000
G02 X175.1425 Y103.7930 I0.5113 J0.3125
G02 X175.6837 Y102.9075 I0.0150 J-0.5990
G02 X174.6462 Y102.8816 I-0.5262 J0.2865
G01 Z-8.1000
G02 X175.1425 Y103.7930 I0.5113 J0.3125
G02 X175.6837 Y102.9075 I0.0150 J-0.5990
G02 X174.6462 Y102.8816 I-0.5262 J0.2865
G00 Z5.0000


(No. 12: Hole 20)
G00 X210.9771 Y103.1099 Z5.0000
G00 Z0.5000
G01 Z-0.3000 F250
G03 X211.3205 Y103.0799 I0.1804 J0.0841
G03 X211.1748 Y103.3923 I-0.1631 J0.1141
G03 X210.9771 Y103.1099 I-0.0173 J-0.1983
G01 Z-0.6000
G03 X211.3205 Y103.0799 I0.1804 J0.0841
G03 X211.1748 Y103.3923 I-0.1631 J0.1141
G03 X210.9771 Y103.1099 I-0.0173 J-0.1983
G01 Z-0.9000
G03 X211.3205 Y103.0799 I0.1804 J0.0841
G03 X211.1748 Y103.3923 I-0.1631 J0.1141
G03 X210.9771 Y103.1099 I-0.0173 J-0.1983
G01 Z-1.2000
G03 X211.3205 Y103.0799 I0.1804 J0.0841
G03 X211.1748 Y103.3923 I-0.1631 J0.1141
G03 X210.9771 Y103.1099 I-0.0173 J-0.1983
G01 Z-1.5000
G03 X211.3205 Y103.0799 I0.1804 J0.0841
G03 X211.1748 Y103.3923 I-0.1631 J0.1141
G03 X210.9771 Y103.1099 I-0.0173 J-0.1983
G01 Z-1.8000
G03 X211.3205 Y103.0799 I0.1804 J0.0841
G03 X211.1748 Y103.3923 I-0.1631 J0.1141
G03 X210.9771 Y103.1099 I-0.0173 J-0.1983
G01 Z-2.1000
G03 X211.3205 Y103.0799 I0.1804 J0.0841
G03 X211.1748 Y103.3923 I-0.1631 J0.1141
G03 X210.9771 Y103.1099 I-0.0173 J-0.1983
G01 Z-2.4000
G03 X211.3205 Y103.0799 I0.1804 J0.0841
G03 X211.1748 Y103.3923 I-0.1631 J0.1141
G03 X210.9771 Y103.1099 I-0.0173 J-0.1983
G01 Z-2.7000
G03 X211.3205 Y103.0799 I0.1804 J0.0841
G03 X211.1748 Y103.3923 I-0.1631 J0.1141
G03 X210.9771 Y103.1099 I-0.0173 J-0.1983
G01 Z-3.0000
G03 X211.3205 Y103.0799 I0.1804 J0.0841
G03 X211.1748 Y103.3923 I-0.1631 J0.1141
G03 X210.9771 Y103.1099 I-0.0173 J-0.1983
G01 Z-3.3000
G03 X211.3205 Y103.0799 I0.1804 J0.0841
G03 X211.1748 Y103.3923 I-0.1631 J0.1141
G03 X210.9771 Y103.1099 I-0.0173 J-0.1983
G01 Z-3.6000
G03 X211.3205 Y103.0799 I0.1804 J0.0841
G03 X211.1748 Y103.3923 I-0.1631 J0.1141
G03 X210.9771 Y103.1099 I-0.0173 J-0.1983
G01 Z-3.9000
G03 X211.3205 Y103.0799 I0.1804 J0.0841
G03 X211.1748 Y103.3923 I-0.1631 J0.1141
G03 X210.9771 Y103.1099 I-0.0173 J-0.1983
G01 Z-4.2000
G03 X211.3205 Y103.0799 I0.1804 J0.0841
G03 X211.1748 Y103.3923 I-0.1631 J0.1141
G03 X210.9771 Y103.1099 I-0.0173 J-0.1983
G01 Z-4.5000
G03 X211.3205 Y103.0799 I0.1804 J0.0841
G03 X211.1748 Y103.3923 I-0.1631 J0.1141
G03 X210.9771 Y103.1099 I-0.0173 J-0.1983
G01 Z-4.8000
G03 X211.3205 Y103.0799 I0.1804 J0.0841
G03 X211.1748 Y103.3923 I-0.1631 J0.1141
G03 X210.9771 Y103.1099 I-0.0173 J-0.1983
G01 Z-5.1000
G03 X211.3205 Y103.0799 I0.1804 J0.0841
G03 X211.1748 Y103.3923 I-0.1631 J0.1141
G03 X210.9771 Y103.1099 I-0.0173 J-0.1983
G01 Z-5.4000
G03 X211.3205 Y103.0799 I0.1804 J0.0841
G03 X211.1748 Y103.3923 I-0.1631 J0.1141
G03 X210.9771 Y103.1099 I-0.0173 J-0.1983
G01 Z-5.7000
G03 X211.3205 Y103.0799 I0.1804 J0.0841
G03 X211.1748 Y103.3923 I-0.1631 J0.1141
G03 X210.9771 Y103.1099 I-0.0173 J-0.1983
G01 Z-6.0000
G03 X211.3205 Y103.0799 I0.1804 J0.0841
G03 X211.1748 Y103.3923 I-0.1631 J0.1141
G03 X210.9771 Y103.1099 I-0.0173 J-0.1983
G01 Z-6.3000
G03 X211.3205 Y103.0799 I0.1804 J0.0841
G03 X211.1748 Y103.3923 I-0.1631 J0.1141
G03 X210.9771 Y103.1099 I-0.0173 J-0.1983
G01 Z-6.6000
G03 X211.3205 Y103.0799 I0.1804 J0.0841
G03 X211.1748 Y103.3923 I-0.1631 J0.1141
G03 X210.9771 Y103.1099 I-0.0173 J-0.1983
G01 Z-6.9000
G03 X211.3205 Y103.0799 I0.1804 J0.0841
G03 X211.1748 Y103.3923 I-0.1631 J0.1141
G03 X210.9771 Y103.1099 I-0.0173 J-0.1983
G01 Z-7.2000
G03 X211.3205 Y103.0799 I0.1804 J0.0841
G03 X211.1748 Y103.3923 I-0.1631 J0.1141
G03 X210.9771 Y103.1099 I-0.0173 J-0.1983
G01 Z-7.5000
G03 X211.3205 Y103.0799 I0.1804 J0.0841
G03 X211.1748 Y103.3923 I-0.1631 J0.1141
G03 X210.9771 Y103.1099 I-0.0173 J-0.1983
G01 Z-7.8000
G03 X211.3205 Y103.0799 I0.1804 J0.0841
G03 X211.1748 Y103.3923 I-0.1631 J0.1141
G03 X210.9771 Y103.1099 I-0.0173 J-0.1983
G01 Z-8.1000
G03 X211.3205 Y103.0799 I0.1804 J0.0841
G03 X211.1748 Y103.3923 I-0.1631 J0.1141
G03 X210.9771 Y103.1099 I-0.0173 J-0.1983
G00 Z5.0000


(No. 13: Hole 5)
G00 X11.9612 Y37.0029 Z5.0000
G00 Z0.5000
G01 Z-0.3000 F250
G02 X11.7466 Y38.0183 I0.1858 J0.5697
G02 X12.7332 Y37.6964 I0.4004 J-0.4458
G02 X11.9612 Y37.0029 I-0.5863 J-0.1239
G01 Z-0.6000
G02 X11.7466 Y38.0183 I0.1858 J0.5697
G02 X12.7332 Y37.6964 I0.4004 J-0.4458
G02 X11.9612 Y37.0029 I-0.5863 J-0.1239
G01 Z-0.9000
G02 X11.7466 Y38.0183 I0.1858 J0.5697
G02 X12.7332 Y37.6964 I0.4004 J-0.4458
G02 X11.9612 Y37.0029 I-0.5863 J-0.1239
G01 Z-1.2000
G02 X11.7466 Y38.0183 I0.1858 J0.5697
G02 X12.7332 Y37.6964 I0.4004 J-0.4458
G02 X11.9612 Y37.0029 I-0.5863 J-0.1239
G01 Z-1.5000
G02 X11.7466 Y38.0183 I0.1858 J0.5697
G02 X12.7332 Y37.6964 I0.4004 J-0.4458
G02 X11.9612 Y37.0029 I-0.5863 J-0.1239
G01 Z-1.8000
G02 X11.7466 Y38.0183 I0.1858 J0.5697
G02 X12.7332 Y37.6964 I0.4004 J-0.4458
G02 X11.9612 Y37.0029 I-0.5863 J-0.1239
G01 Z-2.1000
G02 X11.7466 Y38.0183 I0.1858 J0.5697
G02 X12.7332 Y37.6964 I0.4004 J-0.4458
G02 X11.9612 Y37.0029 I-0.5863 J-0.1239
G01 Z-2.4000
G02 X11.7466 Y38.0183 I0.1858 J0.5697
G02 X12.7332 Y37.6964 I0.4004 J-0.4458
G02 X11.9612 Y37.0029 I-0.5863 J-0.1239
G01 Z-2.7000
G02 X11.7466 Y38.0183 I0.1858 J0.5697
G02 X12.7332 Y37.6964 I0.4004 J-0.4458
G02 X11.9612 Y37.0029 I-0.5863 J-0.1239
G01 Z-3.0000
G02 X11.7466 Y38.0183 I0.1858 J0.5697
G02 X12.7332 Y37.6964 I0.4004 J-0.4458
G02 X11.9612 Y37.0029 I-0.5863 J-0.1239
G01 Z-3.3000
G02 X11.7466 Y38.0183 I0.1858 J0.5697
G02 X12.7332 Y37.6964 I0.4004 J-0.4458
G02 X11.9612 Y37.0029 I-0.5863 J-0.1239
G01 Z-3.6000
G02 X11.7466 Y38.0183 I0.1858 J0.5697
G02 X12.7332 Y37.6964 I0.4004 J-0.4458
G02 X11.9612 Y37.0029 I-0.5863 J-0.1239
G01 Z-3.9000
G02 X11.7466 Y38.0183 I0.1858 J0.5697
G02 X12.7332 Y37.6964 I0.4004 J-0.4458
G02 X11.9612 Y37.0029 I-0.5863 J-0.1239
G01 Z-4.2000
G02 X11.7466 Y38.0183 I0.1858 J0.5697
G02 X12.7332 Y37.6964 I0.4004 J-0.4458
G02 X11.9612 Y37.0029 I-0.5863 J-0.1239
G01 Z-4.5000
G02 X11.7466 Y38.0183 I0.1858 J0.5697
G02 X12.7332 Y37.6964 I0.4004 J-0.4458
G02 X11.9612 Y37.0029 I-0.5863 J-0.1239
G01 Z-4.8000
G02 X11.7466 Y38.0183 I0.1858 J0.5697
G02 X12.7332 Y37.6964 I0.4004 J-0.4458
G02 X11.9612 Y37.0029 I-0.5863 J-0.1239
G01 Z-5.1000
G02 X11.7466 Y38.0183 I0.1858 J0.5697
G02 X12.7332 Y37.6964 I0.4004 J-0.4458
G02 X11.9612 Y37.0029 I-0.5863 J-0.1239
G01 Z-5.4000
G02 X11.7466 Y38.0183 I0.1858 J0.5697
G02 X12.7332 Y37.6964 I0.4004 J-0.4458
G02 X11.9612 Y37.0029 I-0.5863 J-0.1239
G01 Z-5.7000
G02 X11.7466 Y38.0183 I0.1858 J0.5697
G02 X12.7332 Y37.6964 I0.4004 J-0.4458
G02 X11.9612 Y37.0029 I-0.5863 J-0.1239
G01 Z-6.0000
G02 X11.7466 Y38.0183 I0.1858 J0.5697
G02 X12.7332 Y37.6964 I0.4004 J-0.4458
G02 X11.9612 Y37.0029 I-0.5863 J-0.1239
G01 Z-6.3000
G02 X11.7466 Y38.0183 I0.1858 J0.5697
G02 X12.7332 Y37.6964 I0.4004 J-0.4458
G02 X11.9612 Y37.0029 I-0.5863 J-0.1239
G01 Z-6.6000
G02 X11.7466 Y38.0183 I0.1858 J0.5697
G02 X12.7332 Y37.6964 I0.4004 J-0.4458
G02 X11.9612 Y37.0029 I-0.5863 J-0.1239
G01 Z-6.9000
G02 X11.7466 Y38.0183 I0.1858 J0.5697
G02 X12.7332 Y37.6964 I0.4004 J-0.4458
G02 X11.9612 Y37.0029 I-0.5863 J-0.1239
G01 Z-7.2000
G02 X11.7466 Y38.0183 I0.1858 J0.5697
G02 X12.7332 Y37.6964 I0.4004 J-0.4458
G02 X11.9612 Y37.0029 I-0.5863 J-0.1239
G01 Z-7.5000
G02 X11.7466 Y38.0183 I0.1858 J0.5697
G02 X12.7332 Y37.6964 I0.4004 J-0.4458
G02 X11.9612 Y37.0029 I-0.5863 J-0.1239
G01 Z-7.8000
G02 X11.7466 Y38.0183 I0.1858 J0.5697
G02 X12.7332 Y37.6964 I0.4004 J-0.4458
G02 X11.9612 Y37.0029 I-0.5863 J-0.1239
G01 Z-8.1000
G02 X11.7466 Y38.0183 I0.1858 J0.5697
G02 X12.7332 Y37.6964 I0.4004 J-0.4458
G02 X11.9612 Y37.0029 I-0.5863 J-0.1239
G00 Z5.0000


(No. 14: Hole 4)
G00 X39.0062 Y37.4318 Z5.0000
G00 Z0.5000
G01 Z-0.3000 F250
G03 X39.3393 Y37.5210 I0.1407 J0.1407
G03 X39.0955 Y37.7648 I-0.1923 J0.0515
G03 X39.0062 Y37.4318 I0.0515 J-0.1923
G01 Z-0.6000
G03 X39.3393 Y37.5210 I0.1407 J0.1407
G03 X39.0955 Y37.7648 I-0.1923 J0.0515
G03 X39.0062 Y37.4318 I0.0515 J-0.1923
G01 Z-0.9000
G03 X39.3393 Y37.5210 I0.1407 J0.1407
G03 X39.0955 Y37.7648 I-0.1923 J0.0515
G03 X39.0062 Y37.4318 I0.0515 J-0.1923
G01 Z-1.2000
G03 X39.3393 Y37.5210 I0.1407 J0.1407
G03 X39.0955 Y37.7648 I-0.1923 J0.0515
G03 X39.0062 Y37.4318 I0.0515 J-0.1923
G01 Z-1.5000
G03 X39.3393 Y37.5210 I0.1407 J0.1407
G03 X39.0955 Y37.7648 I-0.1923 J0.0515
G03 X39.0062 Y37.4318 I0.0515 J-0.1923
G01 Z-1.8000
G03 X39.3393 Y37.5210 I0.1407 J0.1407
G03 X39.0955 Y37.7648 I-0.1923 J0.0515
G03 X39.0062 Y37.4318 I0.0515 J-0.1923
G01 Z-2.1000
G03 X39.3393 Y37.5210 I0.1407 J0.1407
G03 X39.0955 Y37.7648 I-0.1923 J0.0515
G03 X39.0062 Y37.4318 I0.0515 J-0.1923
G01 Z-2.4000
G03 X39.3393 Y37.5210 I0.1407 J0.1407
G03 X39.0955 Y37.7648 I-0.1923 J0.0515
G03 X39.0062 Y37.4318 I0.0515 J-0.1923
G01 Z-2.7000
G03 X39.3393 Y37.5210 I0.1407 J0.1407
G03 X39.0955 Y37.7648 I-0.1923 J0.0515
G03 X39.0062 Y37.4318 I0.0515 J-0.1923
G01 Z-3.0000
G03 X39.3393 Y37.5210 I0.1407 J0.1407
G03 X39.0955 Y37.7648 I-0.1923 J0.0515
G03 X39.0062 Y37.4318 I0.0515 J-0.1923
G01 Z-3.3000
G03 X39.3393 Y37.5210 I0.1407 J0.1407
G03 X39.0955 Y37.7648 I-0.1923 J0.0515
G03 X39.0062 Y37.4318 I0.0515 J-0.1923
G01 Z-3.6000
G03 X39.3393 Y37.5210 I0.1407 J0.1407
G03 X39.0955 Y37.7648 I-0.1923 J0.0515
G03 X39.0062 Y37.4318 I0.0515 J-0.1923
G01 Z-3.9000
G03 X39.3393 Y37.5210 I0.1407 J0.1407
G03 X39.0955 Y37.7648 I-0.1923 J0.0515
G03 X39.0062 Y37.4318 I0.0515 J-0.1923
G01 Z-4.2000
G03 X39.3393 Y37.5210 I0.1407 J0.1407
G03 X39.0955 Y37.7648 I-0.1923 J0.0515
G03 X39.0062 Y37.4318 I0.0515 J-0.1923
G01 Z-4.5000
G03 X39.3393 Y37.5210 I0.1407 J0.1407
G03 X39.0955 Y37.7648 I-0.1923 J0.0515
G03 X39.0062 Y37.4318 I0.0515 J-0.1923
G01 Z-4.8000
G03 X39.3393 Y37.5210 I0.1407 J0.1407
G03 X39.0955 Y37.7648 I-0.1923 J0.0515
G03 X39.0062 Y37.4318 I0.0515 J-0.1923
G01 Z-5.1000
G03 X39.3393 Y37.5210 I0.1407 J0.1407
G03 X39.0955 Y37.7648 I-0.1923 J0.0515
G03 X39.0062 Y37.4318 I0.0515 J-0.1923
G01 Z-5.4000
G03 X39.3393 Y37.5210 I0.1407 J0.1407
G03 X39.0955 Y37.7648 I-0.1923 J0.0515
G03 X39.0062 Y37.4318 I0.0515 J-0.1923
G01 Z-5.7000
G03 X39.3393 Y37.5210 I0.1407 J0.1407
G03 X39.0955 Y37.7648 I-0.1923 J0.0515
G03 X39.0062 Y37.4318 I0.0515 J-0.1923
G01 Z-6.0000
G03 X39.3393 Y37.5210 I0.1407 J0.1407
G03 X39.0955 Y37.7648 I-0.1923 J0.0515
G03 X39.0062 Y37.4318 I0.0515 J-0.1923
G01 Z-6.3000
G03 X39.3393 Y37.5210 I0.1407 J0.1407
G03 X39.0955 Y37.7648 I-0.1923 J0.0515
G03 X39.0062 Y37.4318 I0.0515 J-0.1923
G01 Z-6.6000
G03 X39.3393 Y37.5210 I0.1407 J0.1407
G03 X39.0955 Y37.7648 I-0.1923 J0.0515
G03 X39.0062 Y37.4318 I0.0515 J-0.1923
G01 Z-6.9000
G03 X39.3393 Y37.5210 I0.1407 J0.1407
G03 X39.0955 Y37.7648 I-0.1923 J0.0515
G03 X39.0062 Y37.4318 I0.0515 J-0.1923
G01 Z-7.2000
G03 X39.3393 Y37.5210 I0.1407 J0.1407
G03 X39.0955 Y37.7648 I-0.1923 J0.0515
G03 X39.0062 Y37.4318 I0.0515 J-0.1923
G01 Z-7.5000
G03 X39.3393 Y37.5210 I0.1407 J0.1407
G03 X39.0955 Y37.7648 I-0.1923 J0.0515
G03 X39.0062 Y37.4318 I0.0515 J-0.1923
G01 Z-7.8000
G03 X39.3393 Y37.5210 I0.1407 J0.1407
G03 X39.0955 Y37.7648 I-0.1923 J0.0515
G03 X39.0062 Y37.4318 I0.0515 J-0.1923
G01 Z-8.1000
G03 X39.3393 Y37.5210 I0.1407 J0.1407
G03 X39.0955 Y37.7648 I-0.1923 J0.0515
G03 X39.0062 Y37.4318 I0.0515 J-0.1923
G00 Z5.0000


(No. 15: Hole 11)
G00 X60.1756 Y37.1162 Z5.0000
G00 Z0.5000
G01 Z-0.3000 F250
G02 X60.6719 Y38.0277 I0.5113 J0.3125
G02 X61.2131 Y37.1422 I0.0150 J-0.5990
G02 X60.1756 Y37.1162 I-0.5262 J0.2865
G01 Z-0.6000
G02 X60.6719 Y38.0277 I0.5113 J0.3125
G02 X61.2131 Y37.1422 I0.0150 J-0.5990
G02 X60.1756 Y37.1162 I-0.5262 J0.2865
G01 Z-0.9000
G02 X60.6719 Y38.0277 I0.5113 J0.3125
G02 X61.2131 Y37.1422 I0.0150 J-0.5990
G02 X60.1756 Y37.1162 I-0.5262 J0.2865
G01 Z-1.2000
G02 X60.6719 Y38.0277 I0.5113 J0.3125
G02 X61.2131 Y37.1422 I0.0150 J-0.5990
G02 X60.1756 Y37.1162 I-0.5262 J0.2865
G01 Z-1.5000
G02 X60.6719 Y38.0277 I0.5113 J0.3125
G02 X61.2131 Y37.1422 I0.0150 J-0.5990
G02 X60.1756 Y37.1162 I-0.5262 J0.2865
G01 Z-1.8000
G02 X60.6719 Y38.0277 I0.5113 J0.3125
G02 X61.2131 Y37.1422 I0.0150 J-0.5990
G02 X60.1756 Y37.1162 I-0.5262 J0.2865
G01 Z-2.1000
G02 X60.6719 Y38.0277 I0.5113 J0.3125
G02 X61.2131 Y37.1422 I0.0150 J-0.5990
G02 X60.1756 Y37.1162 I-0.5262 J0.2865
G01 Z-2.4000
G02 X60.6719 Y38.0277 I0.5113 J0.3125
G02 X61.2131 Y37.1422 I0.0150 J-0.5990
G02 X60.1756 Y37.1162 I-0.5262 J0.2865
G01 Z-2.7000
G02 X60.6719 Y38.0277 I0.5113 J0.3125
G02 X61.2131 Y37.1422 I0.0150 J-0.5990
G02 X60.1756 Y37.1162 I-0.5262 J0.2865
G01 Z-3.0000
G02 X60.6719 Y38.0277 I0.5113 J0.3125
G02 X61.2131 Y37.1422 I0.0150 J-0.5990
G02 X60.1756 Y37.1162 I-0.5262 J0.2865
G01 Z-3.3000
G02 X60.6719 Y38.0277 I0.5113 J0.3125
G02 X61.2131 Y37.1422 I0.0150 J-0.5990
G02 X60.1756 Y37.1162 I-0.5262 J0.2865
G01 Z-3.6000
G02 X60.6719 Y38.0277 I0.5113 J0.3125
G02 X61.2131 Y37.1422 I0.0150 J-0.5990
G02 X60.1756 Y37.1162 I-0.5262 J0.2865
G01 Z-3.9000
G02 X60.6719 Y38.0277 I0.5113 J0.3125
G02 X61.2131 Y37.1422 I0.0150 J-0.5990
G02 X60.1756 Y37.1162 I-0.5262 J0.2865
G01 Z-4.2000
G02 X60.6719 Y38.0277 I0.5113 J0.3125
G02 X61.2131 Y37.1422 I0.0150 J-0.5990
G02 X60.1756 Y37.1162 I-0.5262 J0.2865
G01 Z-4.5000
G02 X60.6719 Y38.0277 I0.5113 J0.3125
G02 X61.2131 Y37.1422 I0.0150 J-0.5990
G02 X60.1756 Y37.1162 I-0.5262 J0.2865
G01 Z-4.8000
G02 X60.6719 Y38.0277 I0.5113 J0.3125
G02 X61.2131 Y37.1422 I0.0150 J-0.5990
G02 X60.1756 Y37.1162 I-0.5262 J0.2865
G01 Z-5.1000
G02 X60.6719 Y38.0277 I0.5113 J0.3125
G02 X61.2131 Y37.1422 I0.0150 J-0.5990
G02 X60.1756 Y37.1162 I-0.5262 J0.2865
G01 Z-5.4000
G02 X60.6719 Y38.0277 I0.5113 J0.3125
G02 X61.2131 Y37.1422 I0.0150 J-0.5990
G02 X60.1756 Y37.1162 I-0.5262 J0.2865
G01 Z-5.7000
G02 X60.6719 Y38.0277 I0.5113 J0.3125
G02 X61.2131 Y37.1422 I0.0150 J-0.5990
G02 X60.1756 Y37.1162 I-0.5262 J0.2865
G01 Z-6.0000
G02 X60.6719 Y38.0277 I0.5113 J0.3125
G02 X61.2131 Y37.1422 I0.0150 J-0.5990
G02 X60.1756 Y37.1162 I-0.5262 J0.2865
G01 Z-6.3000
G02 X60.6719 Y38.0277 I0.5113 J0.3125
G02 X61.2131 Y37.1422 I0.0150 J-0.5990
G02 X60.1756 Y37.1162 I-0.5262 J0.2865
G01 Z-6.6000
G02 X60.6719 Y38.0277 I0.5113 J0.3125
G02 X61.2131 Y37.1422 I0.0150 J-0.5990
G02 X60.1756 Y37.1162 I-0.5262 J0.2865
G01 Z-6.9000
G02 X60.6719 Y38.0277 I0.5113 J0.3125
G02 X61.2131 Y37.1422 I0.0150 J-0.5990
G02 X60.1756 Y37.1162 I-0.5262 J0.2865
G01 Z-7.2000
G02 X60.6719 Y38.0277 I0.5113 J0.3125
G02 X61.2131 Y37.1422 I0.0150 J-0.5990
G02 X60.1756 Y37.1162 I-0.5262 J0.2865
G01 Z-7.5000
G02 X60.6719 Y38.0277 I0.5113 J0.3125
G02 X61.2131 Y37.1422 I0.0150 J-0.5990
G02 X60.1756 Y37.1162 I-0.5262 J0.2865
G01 Z-7.8000
G02 X60.6719 Y38.0277 I0.5113 J0.3125
G02 X61.2131 Y37.1422 I0.0150 J-0.5990
G02 X60.1756 Y37.1162 I-0.5262 J0.2865
G01 Z-8.1000
G02 X60.6719 Y38.0277 I0.5113 J0.3125
G02 X61.2131 Y37.1422 I0.0150 J-0.5990
G02 X60.1756 Y37.1162 I-0.5262 J0.2865
G00 Z5.0000


(No. 16: Hole 12)
G00 X87.5065 Y37.3446 Z5.0000
G00 Z0.5000
G01 Z-0.3000 F250
G03 X87.8499 Y37.3145 I0.1804 J0.0841
G03 X87.7042 Y37.6269 I-0.1630 J0.1142
G03 X87.5065 Y37.3446 I-0.0174 J-0.1983
G01 Z-0.6000
G03 X87.8499 Y37.3145 I0.1804 J0.0841
G03 X87.7042 Y37.6269 I-0.1630 J0.1142
G03 X87.5065 Y37.3446 I-0.0174 J-0.1983
G01 Z-0.9000
G03 X87.8499 Y37.3145 I0.1804 J0.0841
G03 X87.7042 Y37.6269 I-0.1630 J0.1142
G03 X87.5065 Y37.3446 I-0.0174 J-0.1983
G01 Z-1.2000
G03 X87.8499 Y37.3145 I0.1804 J0.0841
G03 X87.7042 Y37.6269 I-0.1630 J0.1142
G03 X87.5065 Y37.3446 I-0.0174 J-0.1983
G01 Z-1.5000
G03 X87.8499 Y37.3145 I0.1804 J0.0841
G03 X87.7042 Y37.6269 I-0.1630 J0.1142
G03 X87.5065 Y37.3446 I-0.0174 J-0.1983
G01 Z-1.8000
G03 X87.8499 Y37.3145 I0.1804 J0.0841
G03 X87.7042 Y37.6269 I-0.1630 J0.1142
G03 X87.5065 Y37.3446 I-0.0174 J-0.1983
G01 Z-2.1000
G03 X87.8499 Y37.3145 I0.1804 J0.0841
G03 X87.7042 Y37.6269 I-0.1630 J0.1142
G03 X87.5065 Y37.3446 I-0.0174 J-0.1983
G01 Z-2.4000
G03 X87.8499 Y37.3145 I0.1804 J0.0841
G03 X87.7042 Y37.6269 I-0.1630 J0.1142
G03 X87.5065 Y37.3446 I-0.0174 J-0.1983
G01 Z-2.7000
G03 X87.8499 Y37.3145 I0.1804 J0.0841
G03 X87.7042 Y37.6269 I-0.1630 J0.1142
G03 X87.5065 Y37.3446 I-0.0174 J-0.1983
G01 Z-3.0000
G03 X87.8499 Y37.3145 I0.1804 J0.0841
G03 X87.7042 Y37.6269 I-0.1630 J0.1142
G03 X87.5065 Y37.3446 I-0.0174 J-0.1983
G01 Z-3.3000
G03 X87.8499 Y37.3145 I0.1804 J0.0841
G03 X87.7042 Y37.6269 I-0.1630 J0.1142
G03 X87.5065 Y37.3446 I-0.0174 J-0.1983
G01 Z-3.6000
G03 X87.8499 Y37.3145 I0.1804 J0.0841
G03 X87.7042 Y37.6269 I-0.1630 J0.1142
G03 X87.5065 Y37.3446 I-0.0174 J-0.1983
G01 Z-3.9000
G03 X87.8499 Y37.3145 I0.1804 J0.0841
G03 X87.7042 Y37.6269 I-0.1630 J0.1142
G03 X87.5065 Y37.3446 I-0.0174 J-0.1983
G01 Z-4.2000
G03 X87.8499 Y37.3145 I0.1804 J0.0841
G03 X87.7042 Y37.6269 I-0.1630 J0.1142
G03 X87.5065 Y37.3446 I-0.0174 J-0.1983
G01 Z-4.5000
G03 X87.8499 Y37.3145 I0.1804 J0.0841
G03 X87.7042 Y37.6269 I-0.1630 J0.1142
G03 X87.5065 Y37.3446 I-0.0174 J-0.1983
G01 Z-4.8000
G03 X87.8499 Y37.3145 I0.1804 J0.0841
G03 X87.7042 Y37.6269 I-0.1630 J0.1142
G03 X87.5065 Y37.3446 I-0.0174 J-0.1983
G01 Z-5.1000
G03 X87.8499 Y37.3145 I0.1804 J0.0841
G03 X87.7042 Y37.6269 I-0.1630 J0.1142
G03 X87.5065 Y37.3446 I-0.0174 J-0.1983
G01 Z-5.4000
G03 X87.8499 Y37.3145 I0.1804 J0.0841
G03 X87.7042 Y37.6269 I-0.1630 J0.1142
G03 X87.5065 Y37.3446 I-0.0174 J-0.1983
G01 Z-5.7000
G03 X87.8499 Y37.3145 I0.1804 J0.0841
G03 X87.7042 Y37.6269 I-0.1630 J0.1142
G03 X87.5065 Y37.3446 I-0.0174 J-0.1983
G01 Z-6.0000
G03 X87.8499 Y37.3145 I0.1804 J0.0841
G03 X87.7042 Y37.6269 I-0.1630 J0.1142
G03 X87.5065 Y37.3446 I-0.0174 J-0.1983
G01 Z-6.3000
G03 X87.8499 Y37.3145 I0.1804 J0.0841
G03 X87.7042 Y37.6269 I-0.1630 J0.1142
G03 X87.5065 Y37.3446 I-0.0174 J-0.1983
G01 Z-6.6000
G03 X87.8499 Y37.3145 I0.1804 J0.0841
G03 X87.7042 Y37.6269 I-0.1630 J0.1142
G03 X87.5065 Y37.3446 I-0.0174 J-0.1983
G01 Z-6.9000
G03 X87.8499 Y37.3145 I0.1804 J0.0841
G03 X87.7042 Y37.6269 I-0.1630 J0.1142
G03 X87.5065 Y37.3446 I-0.0174 J-0.1983
G01 Z-7.2000
G03 X87.8499 Y37.3145 I0.1804 J0.0841
G03 X87.7042 Y37.6269 I-0.1630 J0.1142
G03 X87.5065 Y37.3446 I-0.0174 J-0.1983
G01 Z-7.5000
G03 X87.8499 Y37.3145 I0.1804 J0.0841
G03 X87.7042 Y37.6269 I-0.1630 J0.1142
G03 X87.5065 Y37.3446 I-0.0174 J-0.1983
G01 Z-7.8000
G03 X87.8499 Y37.3145 I0.1804 J0.0841
G03 X87.7042 Y37.6269 I-0.1630 J0.1142
G03 X87.5065 Y37.3446 I-0.0174 J-0.1983
G01 Z-8.1000
G03 X87.8499 Y37.3145 I0.1804 J0.0841
G03 X87.7042 Y37.6269 I-0.1630 J0.1142
G03 X87.5065 Y37.3446 I-0.0174 J-0.1983
G00 Z5.0000


(No. 17: Hole 16)
G00 X111.0589 Y37.2382 Z5.0000
G00 Z0.5000
G01 Z-0.3000 F250
G02 X111.7543 Y38.0087 I0.5701 J0.1845
G02 X112.0738 Y37.0213 I-0.1253 J-0.5860
G02 X111.0589 Y37.2382 I-0.4448 J0.4015
G01 Z-0.6000
G02 X111.7543 Y38.0087 I0.5701 J0.1845
G02 X112.0738 Y37.0213 I-0.1253 J-0.5860
G02 X111.0589 Y37.2382 I-0.4448 J0.4015
G01 Z-0.9000
G02 X111.7543 Y38.0087 I0.5701 J0.1845
G02 X112.0738 Y37.0213 I-0.1253 J-0.5860
G02 X111.0589 Y37.2382 I-0.4448 J0.4015
G01 Z-1.2000
G02 X111.7543 Y38.0087 I0.5701 J0.1845
G02 X112.0738 Y37.0213 I-0.1253 J-0.5860
G02 X111.0589 Y37.2382 I-0.4448 J0.4015
G01 Z-1.5000
G02 X111.7543 Y38.0087 I0.5701 J0.1845
G02 X112.0738 Y37.0213 I-0.1253 J-0.5860
G02 X111.0589 Y37.2382 I-0.4448 J0.4015
G01 Z-1.8000
G02 X111.7543 Y38.0087 I0.5701 J0.1845
G02 X112.0738 Y37.0213 I-0.1253 J-0.5860
G02 X111.0589 Y37.2382 I-0.4448 J0.4015
G01 Z-2.1000
G02 X111.7543 Y38.0087 I0.5701 J0.1845
G02 X112.0738 Y37.0213 I-0.1253 J-0.5860
G02 X111.0589 Y37.2382 I-0.4448 J0.4015
G01 Z-2.4000
G02 X111.7543 Y38.0087 I0.5701 J0.1845
G02 X112.0738 Y37.0213 I-0.1253 J-0.5860
G02 X111.0589 Y37.2382 I-0.4448 J0.4015
G01 Z-2.7000
G02 X111.7543 Y38.0087 I0.5701 J0.1845
G02 X112.0738 Y37.0213 I-0.1253 J-0.5860
G02 X111.0589 Y37.2382 I-0.4448 J0.4015
G01 Z-3.0000
G02 X111.7543 Y38.0087 I0.5701 J0.1845
G02 X112.0738 Y37.0213 I-0.1253 J-0.5860
G02 X111.0589 Y37.2382 I-0.4448 J0.4015
G01 Z-3.3000
G02 X111.7543 Y38.0087 I0.5701 J0.1845
G02 X112.0738 Y37.0213 I-0.1253 J-0.5860
G02 X111.0589 Y37.2382 I-0.4448 J0.4015
G01 Z-3.6000
G02 X111.7543 Y38.0087 I0.5701 J0.1845
G02 X112.0738 Y37.0213 I-0.1253 J-0.5860
G02 X111.0589 Y37.2382 I-0.4448 J0.4015
G01 Z-3.9000
G02 X111.7543 Y38.0087 I0.5701 J0.1845
G02 X112.0738 Y37.0213 I-0.1253 J-0.5860
G02 X111.0589 Y37.2382 I-0.4448 J0.4015
G01 Z-4.2000
G02 X111.7543 Y38.0087 I0.5701 J0.1845
G02 X112.0738 Y37.0213 I-0.1253 J-0.5860
G02 X111.0589 Y37.2382 I-0.4448 J0.4015
G01 Z-4.5000
G02 X111.7543 Y38.0087 I0.5701 J0.1845
G02 X112.0738 Y37.0213 I-0.1253 J-0.5860
G02 X111.0589 Y37.2382 I-0.4448 J0.4015
G01 Z-4.8000
G02 X111.7543 Y38.0087 I0.5701 J0.1845
G02 X112.0738 Y37.0213 I-0.1253 J-0.5860
G02 X111.0589 Y37.2382 I-0.4448 J0.4015
G01 Z-5.1000
G02 X111.7543 Y38.0087 I0.5701 J0.1845
G02 X112.0738 Y37.0213 I-0.1253 J-0.5860
G02 X111.0589 Y37.2382 I-0.4448 J0.4015
G01 Z-5.4000
G02 X111.7543 Y38.0087 I0.5701 J0.1845
G02 X112.0738 Y37.0213 I-0.1253 J-0.5860
G02 X111.0589 Y37.2382 I-0.4448 J0.4015
G01 Z-5.7000
G02 X111.7543 Y38.0087 I0.5701 J0.1845
G02 X112.0738 Y37.0213 I-0.1253 J-0.5860
G02 X111.0589 Y37.2382 I-0.4448 J0.4015
G01 Z-6.0000
G02 X111.7543 Y38.0087 I0.5701 J0.1845
G02 X112.0738 Y37.0213 I-0.1253 J-0.5860
G02 X111.0589 Y37.2382 I-0.4448 J0.4015
G01 Z-6.3000
G02 X111.7543 Y38.0087 I0.5701 J0.1845
G02 X112.0738 Y37.0213 I-0.1253 J-0.5860
G02 X111.0589 Y37.2382 I-0.4448 J0.4015
G01 Z-6.6000
G02 X111.7543 Y38.0087 I0.5701 J0.1845
G02 X112.0738 Y37.0213 I-0.1253 J-0.5860
G02 X111.0589 Y37.2382 I-0.4448 J0.4015
G01 Z-6.9000
G02 X111.7543 Y38.0087 I0.5701 J0.1845
G02 X112.0738 Y37.0213 I-0.1253 J-0.5860
G02 X111.0589 Y37.2382 I-0.4448 J0.4015
G01 Z-7.2000
G02 X111.7543 Y38.0087 I0.5701 J0.1845
G02 X112.0738 Y37.0213 I-0.1253 J-0.5860
G02 X111.0589 Y37.2382 I-0.4448 J0.4015
G01 Z-7.5000
G02 X111.7543 Y38.0087 I0.5701 J0.1845
G02 X112.0738 Y37.0213 I-0.1253 J-0.5860
G02 X111.0589 Y37.2382 I-0.4448 J0.4015
G01 Z-7.8000
G02 X111.7543 Y38.0087 I0.5701 J0.1845
G02 X112.0738 Y37.0213 I-0.1253 J-0.5860
G02 X111.0589 Y37.2382 I-0.4448 J0.4015
G01 Z-8.1000
G02 X111.7543 Y38.0087 I0.5701 J0.1845
G02 X112.0738 Y37.0213 I-0.1253 J-0.5860
G02 X111.0589 Y37.2382 I-0.4448 J0.4015
G00 Z5.0000


(No. 18: Hole 17)
G00 X147.4368 Y37.3712 Z5.0000
G00 Z0.5000
G01 Z-0.3000 F250
G03 X147.7698 Y37.2820 I0.1923 J0.0515
G03 X147.6805 Y37.6150 I-0.1407 J0.1407
G03 X147.4368 Y37.3712 I-0.0515 J-0.1923
G01 Z-0.6000
G03 X147.7698 Y37.2820 I0.1923 J0.0515
G03 X147.6805 Y37.6150 I-0.1407 J0.1407
G03 X147.4368 Y37.3712 I-0.0515 J-0.1923
G01 Z-0.9000
G03 X147.7698 Y37.2820 I0.1923 J0.0515
G03 X147.6805 Y37.6150 I-0.1407 J0.1407
G03 X147.4368 Y37.3712 I-0.0515 J-0.1923
G01 Z-1.2000
G03 X147.7698 Y37.2820 I0.1923 J0.0515
G03 X147.6805 Y37.6150 I-0.1407 J0.1407
G03 X147.4368 Y37.3712 I-0.0515 J-0.1923
G01 Z-1.5000
G03 X147.7698 Y37.2820 I0.1923 J0.0515
G03 X147.6805 Y37.6150 I-0.1407 J0.1407
G03 X147.4368 Y37.3712 I-0.0515 J-0.1923
G01 Z-1.8000
G03 X147.7698 Y37.2820 I0.1923 J0.0515
G03 X147.6805 Y37.6150 I-0.1407 J0.1407
G03 X147.4368 Y37.3712 I-0.0515 J-0.1923
G01 Z-2.1000
G03 X147.7698 Y37.2820 I0.1923 J0.0515
G03 X147.6805 Y37.6150 I-0.1407 J0.1407
G03 X147.4368 Y37.3712 I-0.0515 J-0.1923
G01 Z-2.4000
G03 X147.7698 Y37.2820 I0.1923 J0.0515
G03 X147.6805 Y37.6150 I-0.1407 J0.1407
G03 X147.4368 Y37.3712 I-0.0515 J-0.1923
G01 Z-2.7000
G03 X147.7698 Y37.2820 I0.1923 J0.0515
G03 X147.6805 Y37.6150 I-0.1407 J0.1407
G03 X147.4368 Y37.3712 I-0.0515 J-0.1923
G01 Z-3.0000
G03 X147.7698 Y37.2820 I0.1923 J0.0515
G03 X147.6805 Y37.6150 I-0.1407 J0.1407
G03 X147.4368 Y37.3712 I-0.0515 J-0.1923
G01 Z-3.3000
G03 X147.7698 Y37.2820 I0.1923 J0.0515
G03 X147.6805 Y37.6150 I-0.1407 J0.1407
G03 X147.4368 Y37.3712 I-0.0515 J-0.1923
G01 Z-3.6000
G03 X147.7698 Y37.2820 I0.1923 J0.0515
G03 X147.6805 Y37.6150 I-0.1407 J0.1407
G03 X147.4368 Y37.3712 I-0.0515 J-0.1923
G01 Z-3.9000
G03 X147.7698 Y37.2820 I0.1923 J0.0515
G03 X147.6805 Y37.6150 I-0.1407 J0.1407
G03 X147.4368 Y37.3712 I-0.0515 J-0.1923
G01 Z-4.2000
G03 X147.7698 Y37.2820 I0.1923 J0.0515
G03 X147.6805 Y37.6150 I-0.1407 J0.1407
G03 X147.4368 Y37.3712 I-0.0515 J-0.1923
G01 Z-4.5000
G03 X147.7698 Y37.2820 I0.1923 J0.0515
G03 X147.6805 Y37.6150 I-0.1407 J0.1407
G03 X147.4368 Y37.3712 I-0.0515 J-0.1923
G01 Z-4.8000
G03 X147.7698 Y37.2820 I0.1923 J0.0515
G03 X147.6805 Y37.6150 I-0.1407 J0.1407
G03 X147.4368 Y37.3712 I-0.0515 J-0.1923
G01 Z-5.1000
G03 X147.7698 Y37.2820 I0.1923 J0.0515
G03 X147.6805 Y37.6150 I-0.1407 J0.1407
G03 X147.4368 Y37.3712 I-0.0515 J-0.1923
G01 Z-5.4000
G03 X147.7698 Y37.2820 I0.1923 J0.0515
G03 X147.6805 Y37.6150 I-0.1407 J0.1407
G03 X147.4368 Y37.3712 I-0.0515 J-0.1923
G01 Z-5.7000
G03 X147.7698 Y37.2820 I0.1923 J0.0515
G03 X147.6805 Y37.6150 I-0.1407 J0.1407
G03 X147.4368 Y37.3712 I-0.0515 J-0.1923
G01 Z-6.0000
G03 X147.7698 Y37.2820 I0.1923 J0.0515
G03 X147.6805 Y37.6150 I-0.1407 J0.1407
G03 X147.4368 Y37.3712 I-0.0515 J-0.1923
G01 Z-6.3000
G03 X147.7698 Y37.2820 I0.1923 J0.0515
G03 X147.6805 Y37.6150 I-0.1407 J0.1407
G03 X147.4368 Y37.3712 I-0.0515 J-0.1923
G01 Z-6.6000
G03 X147.7698 Y37.2820 I0.1923 J0.0515
G03 X147.6805 Y37.6150 I-0.1407 J0.1407
G03 X147.4368 Y37.3712 I-0.0515 J-0.1923
G01 Z-6.9000
G03 X147.7698 Y37.2820 I0.1923 J0.0515
G03 X147.6805 Y37.6150 I-0.1407 J0.1407
G03 X147.4368 Y37.3712 I-0.0515 J-0.1923
G01 Z-7.2000
G03 X147.7698 Y37.2820 I0.1923 J0.0515
G03 X147.6805 Y37.6150 I-0.1407 J0.1407
G03 X147.4368 Y37.3712 I-0.0515 J-0.1923
G01 Z-7.5000
G03 X147.7698 Y37.2820 I0.1923 J0.0515
G03 X147.6805 Y37.6150 I-0.1407 J0.1407
G03 X147.4368 Y37.3712 I-0.0515 J-0.1923
G01 Z-7.8000
G03 X147.7698 Y37.2820 I0.1923 J0.0515
G03 X147.6805 Y37.6150 I-0.1407 J0.1407
G03 X147.4368 Y37.3712 I-0.0515 J-0.1923
G01 Z-8.1000
G03 X147.7698 Y37.2820 I0.1923 J0.0515
G03 X147.6805 Y37.6150 I-0.1407 J0.1407
G03 X147.4368 Y37.3712 I-0.0515 J-0.1923
G00 Z5.0000


(No. 19: Hole 22)
G00 X174.5747 Y37.4048 Z5.0000
G00 Z0.5000
G01 Z-0.3000 F250
G02 X175.3283 Y38.1184 I0.5828 J0.1392
G02 X175.5694 Y37.1089 I-0.1709 J-0.5743
G02 X174.5747 Y37.4048 I-0.4119 J0.4351
G01 Z-0.6000
G02 X175.3283 Y38.1184 I0.5828 J0.1392
G02 X175.5694 Y37.1089 I-0.1709 J-0.5743
G02 X174.5747 Y37.4048 I-0.4119 J0.4351
G01 Z-0.9000
G02 X175.3283 Y38.1184 I0.5828 J0.1392
G02 X175.5694 Y37.1089 I-0.1709 J-0.5743
G02 X174.5747 Y37.4048 I-0.4119 J0.4351
G01 Z-1.2000
G02 X175.3283 Y38.1184 I0.5828 J0.1392
G02 X175.5694 Y37.1089 I-0.1709 J-0.5743
G02 X174.5747 Y37.4048 I-0.4119 J0.4351
G01 Z-1.5000
G02 X175.3283 Y38.1184 I0.5828 J0.1392
G02 X175.5694 Y37.1089 I-0.1709 J-0.5743
G02 X174.5747 Y37.4048 I-0.4119 J0.4351
G01 Z-1.8000
G02 X175.3283 Y38.1184 I0.5828 J0.1392
G02 X175.5694 Y37.1089 I-0.1709 J-0.5743
G02 X174.5747 Y37.4048 I-0.4119 J0.4351
G01 Z-2.1000
G02 X175.3283 Y38.1184 I0.5828 J0.1392
G02 X175.5694 Y37.1089 I-0.1709 J-0.5743
G02 X174.5747 Y37.4048 I-0.4119 J0.4351
G01 Z-2.4000
G02 X175.3283 Y38.1184 I0.5828 J0.1392
G02 X175.5694 Y37.1089 I-0.1709 J-0.5743
G02 X174.5747 Y37.4048 I-0.4119 J0.4351
G01 Z-2.7000
G02 X175.3283 Y38.1184 I0.5828 J0.1392
G02 X175.5694 Y37.1089 I-0.1709 J-0.5743
G02 X174.5747 Y37.4048 I-0.4119 J0.4351
G01 Z-3.0000
G02 X175.3283 Y38.1184 I0.5828 J0.1392
G02 X175.5694 Y37.1089 I-0.1709 J-0.5743
G02 X174.5747 Y37.4048 I-0.4119 J0.4351
G01 Z-3.3000
G02 X175.3283 Y38.1184 I0.5828 J0.1392
G02 X175.5694 Y37.1089 I-0.1709 J-0.5743
G02 X174.5747 Y37.4048 I-0.4119 J0.4351
G01 Z-3.6000
G02 X175.3283 Y38.1184 I0.5828 J0.1392
G02 X175.5694 Y37.1089 I-0.1709 J-0.5743
G02 X174.5747 Y37.4048 I-0.4119 J0.4351
G01 Z-3.9000
G02 X175.3283 Y38.1184 I0.5828 J0.1392
G02 X175.5694 Y37.1089 I-0.1709 J-0.5743
G02 X174.5747 Y37.4048 I-0.4119 J0.4351
G01 Z-4.2000
G02 X175.3283 Y38.1184 I0.5828 J0.1392
G02 X175.5694 Y37.1089 I-0.1709 J-0.5743
G02 X174.5747 Y37.4048 I-0.4119 J0.4351
G01 Z-4.5000
G02 X175.3283 Y38.1184 I0.5828 J0.1392
G02 X175.5694 Y37.1089 I-0.1709 J-0.5743
G02 X174.5747 Y37.4048 I-0.4119 J0.4351
G01 Z-4.8000
G02 X175.3283 Y38.1184 I0.5828 J0.1392
G02 X175.5694 Y37.1089 I-0.1709 J-0.5743
G02 X174.5747 Y37.4048 I-0.4119 J0.4351
G01 Z-5.1000
G02 X175.3283 Y38.1184 I0.5828 J0.1392
G02 X175.5694 Y37.1089 I-0.1709 J-0.5743
G02 X174.5747 Y37.4048 I-0.4119 J0.4351
G01 Z-5.4000
G02 X175.3283 Y38.1184 I0.5828 J0.1392
G02 X175.5694 Y37.1089 I-0.1709 J-0.5743
G02 X174.5747 Y37.4048 I-0.4119 J0.4351
G01 Z-5.7000
G02 X175.3283 Y38.1184 I0.5828 J0.1392
G02 X175.5694 Y37.1089 I-0.1709 J-0.5743
G02 X174.5747 Y37.4048 I-0.4119 J0.4351
G01 Z-6.0000
G02 X175.3283 Y38.1184 I0.5828 J0.1392
G02 X175.5694 Y37.1089 I-0.1709 J-0.5743
G02 X174.5747 Y37.4048 I-0.4119 J0.4351
G01 Z-6.3000
G02 X175.3283 Y38.1184 I0.5828 J0.1392
G02 X175.5694 Y37.1089 I-0.1709 J-0.5743
G02 X174.5747 Y37.4048 I-0.4119 J0.4351
G01 Z-6.6000
G02 X175.3283 Y38.1184 I0.5828 J0.1392
G02 X175.5694 Y37.1089 I-0.1709 J-0.5743
G02 X174.5747 Y37.4048 I-0.4119 J0.4351
G01 Z-6.9000
G02 X175.3283 Y38.1184 I0.5828 J0.1392
G02 X175.5694 Y37.1089 I-0.1709 J-0.5743
G02 X174.5747 Y37.4048 I-0.4119 J0.4351
G01 Z-7.2000
G02 X175.3283 Y38.1184 I0.5828 J0.1392
G02 X175.5694 Y37.1089 I-0.1709 J-0.5743
G02 X174.5747 Y37.4048 I-0.4119 J0.4351
G01 Z-7.5000
G02 X175.3283 Y38.1184 I0.5828 J0.1392
G02 X175.5694 Y37.1089 I-0.1709 J-0.5743
G02 X174.5747 Y37.4048 I-0.4119 J0.4351
G01 Z-7.8000
G02 X175.3283 Y38.1184 I0.5828 J0.1392
G02 X175.5694 Y37.1089 I-0.1709 J-0.5743
G02 X174.5747 Y37.4048 I-0.4119 J0.4351
G01 Z-8.1000
G02 X175.3283 Y38.1184 I0.5828 J0.1392
G02 X175.5694 Y37.1089 I-0.1709 J-0.5743
G02 X174.5747 Y37.4048 I-0.4119 J0.4351
G00 Z5.0000


(No. 20: Hole 23)
G00 X210.9615 Y37.5095 Z5.0000
G00 Z0.5000
G01 Z-0.3000 F250
G03 X211.2854 Y37.3915 I0.1960 J0.0346
G03 X211.2256 Y37.7311 I-0.1279 J0.1525
G03 X210.9615 Y37.5095 I-0.0681 J-0.1870
G01 Z-0.6000
G03 X211.2854 Y37.3915 I0.1960 J0.0346
G03 X211.2256 Y37.7311 I-0.1279 J0.1525
G03 X210.9615 Y37.5095 I-0.0681 J-0.1870
G01 Z-0.9000
G03 X211.2854 Y37.3915 I0.1960 J0.0346
G03 X211.2256 Y37.7311 I-0.1279 J0.1525
G03 X210.9615 Y37.5095 I-0.0681 J-0.1870
G01 Z-1.2000
G03 X211.2854 Y37.3915 I0.1960 J0.0346
G03 X211.2256 Y37.7311 I-0.1279 J0.1525
G03 X210.9615 Y37.5095 I-0.0681 J-0.1870
G01 Z-1.5000
G03 X211.2854 Y37.3915 I0.1960 J0.0346
G03 X211.2256 Y37.7311 I-0.1279 J0.1525
G03 X210.9615 Y37.5095 I-0.0681 J-0.1870
G01 Z-1.8000
G03 X211.2854 Y37.3915 I0.1960 J0.0346
G03 X211.2256 Y37.7311 I-0.1279 J0.1525
G03 X210.9615 Y37.5095 I-0.0681 J-0.1870
G01 Z-2.1000
G03 X211.2854 Y37.3915 I0.1960 J0.0346
G03 X211.2256 Y37.7311 I-0.1279 J0.1525
G03 X210.9615 Y37.5095 I-0.0681 J-0.1870
G01 Z-2.4000
G03 X211.2854 Y37.3915 I0.1960 J0.0346
G03 X211.2256 Y37.7311 I-0.1279 J0.1525
G03 X210.9615 Y37.5095 I-0.0681 J-0.1870
G01 Z-2.7000
G03 X211.2854 Y37.3915 I0.1960 J0.0346
G03 X211.2256 Y37.7311 I-0.1279 J0.1525
G03 X210.9615 Y37.5095 I-0.0681 J-0.1870
G01 Z-3.0000
G03 X211.2854 Y37.3915 I0.1960 J0.0346
G03 X211.2256 Y37.7311 I-0.1279 J0.1525
G03 X210.9615 Y37.5095 I-0.0681 J-0.1870
G01 Z-3.3000
G03 X211.2854 Y37.3915 I0.1960 J0.0346
G03 X211.2256 Y37.7311 I-0.1279 J0.1525
G03 X210.9615 Y37.5095 I-0.0681 J-0.1870
G01 Z-3.6000
G03 X211.2854 Y37.3915 I0.1960 J0.0346
G03 X211.2256 Y37.7311 I-0.1279 J0.1525
G03 X210.9615 Y37.5095 I-0.0681 J-0.1870
G01 Z-3.9000
G03 X211.2854 Y37.3915 I0.1960 J0.0346
G03 X211.2256 Y37.7311 I-0.1279 J0.1525
G03 X210.9615 Y37.5095 I-0.0681 J-0.1870
G01 Z-4.2000
G03 X211.2854 Y37.3915 I0.1960 J0.0346
G03 X211.2256 Y37.7311 I-0.1279 J0.1525
G03 X210.9615 Y37.5095 I-0.0681 J-0.1870
G01 Z-4.5000
G03 X211.2854 Y37.3915 I0.1960 J0.0346
G03 X211.2256 Y37.7311 I-0.1279 J0.1525
G03 X210.9615 Y37.5095 I-0.0681 J-0.1870
G01 Z-4.8000
G03 X211.2854 Y37.3915 I0.1960 J0.0346
G03 X211.2256 Y37.7311 I-0.1279 J0.1525
G03 X210.9615 Y37.5095 I-0.0681 J-0.1870
G01 Z-5.1000
G03 X211.2854 Y37.3915 I0.1960 J0.0346
G03 X211.2256 Y37.7311 I-0.1279 J0.1525
G03 X210.9615 Y37.5095 I-0.0681 J-0.1870
G01 Z-5.4000
G03 X211.2854 Y37.3915 I0.1960 J0.0346
G03 X211.2256 Y37.7311 I-0.1279 J0.1525
G03 X210.9615 Y37.5095 I-0.0681 J-0.1870
G01 Z-5.7000
G03 X211.2854 Y37.3915 I0.1960 J0.0346
G03 X211.2256 Y37.7311 I-0.1279 J0.1525
G03 X210.9615 Y37.5095 I-0.0681 J-0.1870
G01 Z-6.0000
G03 X211.2854 Y37.3915 I0.1960 J0.0346
G03 X211.2256 Y37.7311 I-0.1279 J0.1525
G03 X210.9615 Y37.5095 I-0.0681 J-0.1870
G01 Z-6.3000
G03 X211.2854 Y37.3915 I0.1960 J0.0346
G03 X211.2256 Y37.7311 I-0.1279 J0.1525
G03 X210.9615 Y37.5095 I-0.0681 J-0.1870
G01 Z-6.6000
G03 X211.2854 Y37.3915 I0.1960 J0.0346
G03 X211.2256 Y37.7311 I-0.1279 J0.1525
G03 X210.9615 Y37.5095 I-0.0681 J-0.1870
G01 Z-6.9000
G03 X211.2854 Y37.3915 I0.1960 J0.0346
G03 X211.2256 Y37.7311 I-0.1279 J0.1525
G03 X210.9615 Y37.5095 I-0.0681 J-0.1870
G01 Z-7.2000
G03 X211.2854 Y37.3915 I0.1960 J0.0346
G03 X211.2256 Y37.7311 I-0.1279 J0.1525
G03 X210.9615 Y37.5095 I-0.0681 J-0.1870
G01 Z-7.5000
G03 X211.2854 Y37.3915 I0.1960 J0.0346
G03 X211.2256 Y37.7311 I-0.1279 J0.1525
G03 X210.9615 Y37.5095 I-0.0681 J-0.1870
G01 Z-7.8000
G03 X211.2854 Y37.3915 I0.1960 J0.0346
G03 X211.2256 Y37.7311 I-0.1279 J0.1525
G03 X210.9615 Y37.5095 I-0.0681 J-0.1870
G01 Z-8.1000
G03 X211.2854 Y37.3915 I0.1960 J0.0346
G03 X211.2256 Y37.7311 I-0.1279 J0.1525
G03 X210.9615 Y37.5095 I-0.0681 J-0.1870
G00 Z5.0000


(No. 21: Hole 6)
G00 X24.4746 Y13.2980 Z5.0000
G00 Z0.5000
G01 Z-0.3000 F250
G03 X24.8193 Y13.2981 I0.1724 J0.0995
G03 X24.6469 Y13.5966 I-0.1724 J0.0995
G03 X24.4746 Y13.2980 I0.0000 J-0.1990
G01 Z-0.6000
G03 X24.8193 Y13.2981 I0.1724 J0.0995
G03 X24.6469 Y13.5966 I-0.1724 J0.0995
G03 X24.4746 Y13.2980 I0.0000 J-0.1990
G01 Z-0.9000
G03 X24.8193 Y13.2981 I0.1724 J0.0995
G03 X24.6469 Y13.5966 I-0.1724 J0.0995
G03 X24.4746 Y13.2980 I0.0000 J-0.1990
G01 Z-1.2000
G03 X24.8193 Y13.2981 I0.1724 J0.0995
G03 X24.6469 Y13.5966 I-0.1724 J0.0995
G03 X24.4746 Y13.2980 I0.0000 J-0.1990
G01 Z-1.5000
G03 X24.8193 Y13.2981 I0.1724 J0.0995
G03 X24.6469 Y13.5966 I-0.1724 J0.0995
G03 X24.4746 Y13.2980 I0.0000 J-0.1990
G01 Z-1.8000
G03 X24.8193 Y13.2981 I0.1724 J0.0995
G03 X24.6469 Y13.5966 I-0.1724 J0.0995
G03 X24.4746 Y13.2980 I0.0000 J-0.1990
G01 Z-2.1000
G03 X24.8193 Y13.2981 I0.1724 J0.0995
G03 X24.6469 Y13.5966 I-0.1724 J0.0995
G03 X24.4746 Y13.2980 I0.0000 J-0.1990
G01 Z-2.4000
G03 X24.8193 Y13.2981 I0.1724 J0.0995
G03 X24.6469 Y13.5966 I-0.1724 J0.0995
G03 X24.4746 Y13.2980 I0.0000 J-0.1990
G01 Z-2.7000
G03 X24.8193 Y13.2981 I0.1724 J0.0995
G03 X24.6469 Y13.5966 I-0.1724 J0.0995
G03 X24.4746 Y13.2980 I0.0000 J-0.1990
G01 Z-3.0000
G03 X24.8193 Y13.2981 I0.1724 J0.0995
G03 X24.6469 Y13.5966 I-0.1724 J0.0995
G03 X24.4746 Y13.2980 I0.0000 J-0.1990
G01 Z-3.3000
G03 X24.8193 Y13.2981 I0.1724 J0.0995
G03 X24.6469 Y13.5966 I-0.1724 J0.0995
G03 X24.4746 Y13.2980 I0.0000 J-0.1990
G01 Z-3.6000
G03 X24.8193 Y13.2981 I0.1724 J0.0995
G03 X24.6469 Y13.5966 I-0.1724 J0.0995
G03 X24.4746 Y13.2980 I0.0000 J-0.1990
G01 Z-3.9000
G03 X24.8193 Y13.2981 I0.1724 J0.0995
G03 X24.6469 Y13.5966 I-0.1724 J0.0995
G03 X24.4746 Y13.2980 I0.0000 J-0.1990
G01 Z-4.2000
G03 X24.8193 Y13.2981 I0.1724 J0.0995
G03 X24.6469 Y13.5966 I-0.1724 J0.0995
G03 X24.4746 Y13.2980 I0.0000 J-0.1990
G01 Z-4.5000
G03 X24.8193 Y13.2981 I0.1724 J0.0995
G03 X24.6469 Y13.5966 I-0.1724 J0.0995
G03 X24.4746 Y13.2980 I0.0000 J-0.1990
G01 Z-4.8000
G03 X24.8193 Y13.2981 I0.1724 J0.0995
G03 X24.6469 Y13.5966 I-0.1724 J0.0995
G03 X24.4746 Y13.2980 I0.0000 J-0.1990
G01 Z-5.1000
G03 X24.8193 Y13.2981 I0.1724 J0.0995
G03 X24.6469 Y13.5966 I-0.1724 J0.0995
G03 X24.4746 Y13.2980 I0.0000 J-0.1990
G01 Z-5.4000
G03 X24.8193 Y13.2981 I0.1724 J0.0995
G03 X24.6469 Y13.5966 I-0.1724 J0.0995
G03 X24.4746 Y13.2980 I0.0000 J-0.1990
G01 Z-5.7000
G03 X24.8193 Y13.2981 I0.1724 J0.0995
G03 X24.6469 Y13.5966 I-0.1724 J0.0995
G03 X24.4746 Y13.2980 I0.0000 J-0.1990
G01 Z-6.0000
G03 X24.8193 Y13.2981 I0.1724 J0.0995
G03 X24.6469 Y13.5966 I-0.1724 J0.0995
G03 X24.4746 Y13.2980 I0.0000 J-0.1990
G01 Z-6.3000
G03 X24.8193 Y13.2981 I0.1724 J0.0995
G03 X24.6469 Y13.5966 I-0.1724 J0.0995
G03 X24.4746 Y13.2980 I0.0000 J-0.1990
G01 Z-6.6000
G03 X24.8193 Y13.2981 I0.1724 J0.0995
G03 X24.6469 Y13.5966 I-0.1724 J0.0995
G03 X24.4746 Y13.2980 I0.0000 J-0.1990
G01 Z-6.9000
G03 X24.8193 Y13.2981 I0.1724 J0.0995
G03 X24.6469 Y13.5966 I-0.1724 J0.0995
G03 X24.4746 Y13.2980 I0.0000 J-0.1990
G01 Z-7.2000
G03 X24.8193 Y13.2981 I0.1724 J0.0995
G03 X24.6469 Y13.5966 I-0.1724 J0.0995
G03 X24.4746 Y13.2980 I0.0000 J-0.1990
G01 Z-7.5000
G03 X24.8193 Y13.2981 I0.1724 J0.0995
G03 X24.6469 Y13.5966 I-0.1724 J0.0995
G03 X24.4746 Y13.2980 I0.0000 J-0.1990
G01 Z-7.8000
G03 X24.8193 Y13.2981 I0.1724 J0.0995
G03 X24.6469 Y13.5966 I-0.1724 J0.0995
G03 X24.4746 Y13.2980 I0.0000 J-0.1990
G01 Z-8.1000
G03 X24.8193 Y13.2981 I0.1724 J0.0995
G03 X24.6469 Y13.5966 I-0.1724 J0.0995
G03 X24.4746 Y13.2980 I0.0000 J-0.1990
G00 Z5.0000


(No. 22: Hole 7)
G00 X72.9908 Y13.2191 Z5.0000
G00 Z0.5000
G01 Z-0.3000 F250
G03 X73.3148 Y13.1012 I0.1960 J0.0346
G03 X73.2549 Y13.4407 I-0.1279 J0.1525
G03 X72.9908 Y13.2191 I-0.0681 J-0.1870
G01 Z-0.6000
G03 X73.3148 Y13.1012 I0.1960 J0.0346
G03 X73.2549 Y13.4407 I-0.1279 J0.1525
G03 X72.9908 Y13.2191 I-0.0681 J-0.1870
G01 Z-0.9000
G03 X73.3148 Y13.1012 I0.1960 J0.0346
G03 X73.2549 Y13.4407 I-0.1279 J0.1525
G03 X72.9908 Y13.2191 I-0.0681 J-0.1870
G01 Z-1.2000
G03 X73.3148 Y13.1012 I0.1960 J0.0346
G03 X73.2549 Y13.4407 I-0.1279 J0.1525
G03 X72.9908 Y13.2191 I-0.0681 J-0.1870
G01 Z-1.5000
G03 X73.3148 Y13.1012 I0.1960 J0.0346
G03 X73.2549 Y13.4407 I-0.1279 J0.1525
G03 X72.9908 Y13.2191 I-0.0681 J-0.1870
G01 Z-1.8000
G03 X73.3148 Y13.1012 I0.1960 J0.0346
G03 X73.2549 Y13.4407 I-0.1279 J0.1525
G03 X72.9908 Y13.2191 I-0.0681 J-0.1870
G01 Z-2.1000
G03 X73.3148 Y13.1012 I0.1960 J0.0346
G03 X73.2549 Y13.4407 I-0.1279 J0.1525
G03 X72.9908 Y13.2191 I-0.0681 J-0.1870
G01 Z-2.4000
G03 X73.3148 Y13.1012 I0.1960 J0.0346
G03 X73.2549 Y13.4407 I-0.1279 J0.1525
G03 X72.9908 Y13.2191 I-0.0681 J-0.1870
G01 Z-2.7000
G03 X73.3148 Y13.1012 I0.1960 J0.0346
G03 X73.2549 Y13.4407 I-0.1279 J0.1525
G03 X72.9908 Y13.2191 I-0.0681 J-0.1870
G01 Z-3.0000
G03 X73.3148 Y13.1012 I0.1960 J0.0346
G03 X73.2549 Y13.4407 I-0.1279 J0.1525
G03 X72.9908 Y13.2191 I-0.0681 J-0.1870
G01 Z-3.3000
G03 X73.3148 Y13.1012 I0.1960 J0.0346
G03 X73.2549 Y13.4407 I-0.1279 J0.1525
G03 X72.9908 Y13.2191 I-0.0681 J-0.1870
G01 Z-3.6000
G03 X73.3148 Y13.1012 I0.1960 J0.0346
G03 X73.2549 Y13.4407 I-0.1279 J0.1525
G03 X72.9908 Y13.2191 I-0.0681 J-0.1870
G01 Z-3.9000
G03 X73.3148 Y13.1012 I0.1960 J0.0346
G03 X73.2549 Y13.4407 I-0.1279 J0.1525
G03 X72.9908 Y13.2191 I-0.0681 J-0.1870
G01 Z-4.2000
G03 X73.3148 Y13.1012 I0.1960 J0.0346
G03 X73.2549 Y13.4407 I-0.1279 J0.1525
G03 X72.9908 Y13.2191 I-0.0681 J-0.1870
G01 Z-4.5000
G03 X73.3148 Y13.1012 I0.1960 J0.0346
G03 X73.2549 Y13.4407 I-0.1279 J0.1525
G03 X72.9908 Y13.2191 I-0.0681 J-0.1870
G01 Z-4.8000
G03 X73.3148 Y13.1012 I0.1960 J0.0346
G03 X73.2549 Y13.4407 I-0.1279 J0.1525
G03 X72.9908 Y13.2191 I-0.0681 J-0.1870
G01 Z-5.1000
G03 X73.3148 Y13.1012 I0.1960 J0.0346
G03 X73.2549 Y13.4407 I-0.1279 J0.1525
G03 X72.9908 Y13.2191 I-0.0681 J-0.1870
G01 Z-5.4000
G03 X73.3148 Y13.1012 I0.1960 J0.0346
G03 X73.2549 Y13.4407 I-0.1279 J0.1525
G03 X72.9908 Y13.2191 I-0.0681 J-0.1870
G01 Z-5.7000
G03 X73.3148 Y13.1012 I0.1960 J0.0346
G03 X73.2549 Y13.4407 I-0.1279 J0.1525
G03 X72.9908 Y13.2191 I-0.0681 J-0.1870
G01 Z-6.0000
G03 X73.3148 Y13.1012 I0.1960 J0.0346
G03 X73.2549 Y13.4407 I-0.1279 J0.1525
G03 X72.9908 Y13.2191 I-0.0681 J-0.1870
G01 Z-6.3000
G03 X73.3148 Y13.1012 I0.1960 J0.0346
G03 X73.2549 Y13.4407 I-0.1279 J0.1525
G03 X72.9908 Y13.2191 I-0.0681 J-0.1870
G01 Z-6.6000
G03 X73.3148 Y13.1012 I0.1960 J0.0346
G03 X73.2549 Y13.4407 I-0.1279 J0.1525
G03 X72.9908 Y13.2191 I-0.0681 J-0.1870
G01 Z-6.9000
G03 X73.3148 Y13.1012 I0.1960 J0.0346
G03 X73.2549 Y13.4407 I-0.1279 J0.1525
G03 X72.9908 Y13.2191 I-0.0681 J-0.1870
G01 Z-7.2000
G03 X73.3148 Y13.1012 I0.1960 J0.0346
G03 X73.2549 Y13.4407 I-0.1279 J0.1525
G03 X72.9908 Y13.2191 I-0.0681 J-0.1870
G01 Z-7.5000
G03 X73.3148 Y13.1012 I0.1960 J0.0346
G03 X73.2549 Y13.4407 I-0.1279 J0.1525
G03 X72.9908 Y13.2191 I-0.0681 J-0.1870
G01 Z-7.8000
G03 X73.3148 Y13.1012 I0.1960 J0.0346
G03 X73.2549 Y13.4407 I-0.1279 J0.1525
G03 X72.9908 Y13.2191 I-0.0681 J-0.1870
G01 Z-8.1000
G03 X73.3148 Y13.1012 I0.1960 J0.0346
G03 X73.2549 Y13.4407 I-0.1279 J0.1525
G03 X72.9908 Y13.2191 I-0.0681 J-0.1870
G00 Z5.0000


(No. 23: Hole 18)
G00 X129.4307 Y13.2304 Z5.0000
G00 Z0.5000
G01 Z-0.3000 F250
G03 X129.7432 Y13.0847 I0.1983 J0.0173
G03 X129.7132 Y13.4281 I-0.1141 J0.1631
G03 X129.4307 Y13.2304 I-0.0841 J-0.1804
G01 Z-0.6000
G03 X129.7432 Y13.0847 I0.1983 J0.0173
G03 X129.7132 Y13.4281 I-0.1141 J0.1631
G03 X129.4307 Y13.2304 I-0.0841 J-0.1804
G01 Z-0.9000
G03 X129.7432 Y13.0847 I0.1983 J0.0173
G03 X129.7132 Y13.4281 I-0.1141 J0.1631
G03 X129.4307 Y13.2304 I-0.0841 J-0.1804
G01 Z-1.2000
G03 X129.7432 Y13.0847 I0.1983 J0.0173
G03 X129.7132 Y13.4281 I-0.1141 J0.1631
G03 X129.4307 Y13.2304 I-0.0841 J-0.1804
G01 Z-1.5000
G03 X129.7432 Y13.0847 I0.1983 J0.0173
G03 X129.7132 Y13.4281 I-0.1141 J0.1631
G03 X129.4307 Y13.2304 I-0.0841 J-0.1804
G01 Z-1.8000
G03 X129.7432 Y13.0847 I0.1983 J0.0173
G03 X129.7132 Y13.4281 I-0.1141 J0.1631
G03 X129.4307 Y13.2304 I-0.0841 J-0.1804
G01 Z-2.1000
G03 X129.7432 Y13.0847 I0.1983 J0.0173
G03 X129.7132 Y13.4281 I-0.1141 J0.1631
G03 X129.4307 Y13.2304 I-0.0841 J-0.1804
G01 Z-2.4000
G03 X129.7432 Y13.0847 I0.1983 J0.0173
G03 X129.7132 Y13.4281 I-0.1141 J0.1631
G03 X129.4307 Y13.2304 I-0.0841 J-0.1804
G01 Z-2.7000
G03 X129.7432 Y13.0847 I0.1983 J0.0173
G03 X129.7132 Y13.4281 I-0.1141 J0.1631
G03 X129.4307 Y13.2304 I-0.0841 J-0.1804
G01 Z-3.0000
G03 X129.7432 Y13.0847 I0.1983 J0.0173
G03 X129.7132 Y13.4281 I-0.1141 J0.1631
G03 X129.4307 Y13.2304 I-0.0841 J-0.1804
G01 Z-3.3000
G03 X129.7432 Y13.0847 I0.1983 J0.0173
G03 X129.7132 Y13.4281 I-0.1141 J0.1631
G03 X129.4307 Y13.2304 I-0.0841 J-0.1804
G01 Z-3.6000
G03 X129.7432 Y13.0847 I0.1983 J0.0173
G03 X129.7132 Y13.4281 I-0.1141 J0.1631
G03 X129.4307 Y13.2304 I-0.0841 J-0.1804
G01 Z-3.9000
G03 X129.7432 Y13.0847 I0.1983 J0.0173
G03 X129.7132 Y13.4281 I-0.1141 J0.1631
G03 X129.4307 Y13.2304 I-0.0841 J-0.1804
G01 Z-4.2000
G03 X129.7432 Y13.0847 I0.1983 J0.0173
G03 X129.7132 Y13.4281 I-0.1141 J0.1631
G03 X129.4307 Y13.2304 I-0.0841 J-0.1804
G01 Z-4.5000
G03 X129.7432 Y13.0847 I0.1983 J0.0173
G03 X129.7132 Y13.4281 I-0.1141 J0.1631
G03 X129.4307 Y13.2304 I-0.0841 J-0.1804
G01 Z-4.8000
G03 X129.7432 Y13.0847 I0.1983 J0.0173
G03 X129.7132 Y13.4281 I-0.1141 J0.1631
G03 X129.4307 Y13.2304 I-0.0841 J-0.1804
G01 Z-5.1000
G03 X129.7432 Y13.0847 I0.1983 J0.0173
G03 X129.7132 Y13.4281 I-0.1141 J0.1631
G03 X129.4307 Y13.2304 I-0.0841 J-0.1804
G01 Z-5.4000
G03 X129.7432 Y13.0847 I0.1983 J0.0173
G03 X129.7132 Y13.4281 I-0.1141 J0.1631
G03 X129.4307 Y13.2304 I-0.0841 J-0.1804
G01 Z-5.7000
G03 X129.7432 Y13.0847 I0.1983 J0.0173
G03 X129.7132 Y13.4281 I-0.1141 J0.1631
G03 X129.4307 Y13.2304 I-0.0841 J-0.1804
G01 Z-6.0000
G03 X129.7432 Y13.0847 I0.1983 J0.0173
G03 X129.7132 Y13.4281 I-0.1141 J0.1631
G03 X129.4307 Y13.2304 I-0.0841 J-0.1804
G01 Z-6.3000
G03 X129.7432 Y13.0847 I0.1983 J0.0173
G03 X129.7132 Y13.4281 I-0.1141 J0.1631
G03 X129.4307 Y13.2304 I-0.0841 J-0.1804
G01 Z-6.6000
G03 X129.7432 Y13.0847 I0.1983 J0.0173
G03 X129.7132 Y13.4281 I-0.1141 J0.1631
G03 X129.4307 Y13.2304 I-0.0841 J-0.1804
G01 Z-6.9000
G03 X129.7432 Y13.0847 I0.1983 J0.0173
G03 X129.7132 Y13.4281 I-0.1141 J0.1631
G03 X129.4307 Y13.2304 I-0.0841 J-0.1804
G01 Z-7.2000
G03 X129.7432 Y13.0847 I0.1983 J0.0173
G03 X129.7132 Y13.4281 I-0.1141 J0.1631
G03 X129.4307 Y13.2304 I-0.0841 J-0.1804
G01 Z-7.5000
G03 X129.7432 Y13.0847 I0.1983 J0.0173
G03 X129.7132 Y13.4281 I-0.1141 J0.1631
G03 X129.4307 Y13.2304 I-0.0841 J-0.1804
G01 Z-7.8000
G03 X129.7432 Y13.0847 I0.1983 J0.0173
G03 X129.7132 Y13.4281 I-0.1141 J0.1631
G03 X129.4307 Y13.2304 I-0.0841 J-0.1804
G01 Z-8.1000
G03 X129.7432 Y13.0847 I0.1983 J0.0173
G03 X129.7132 Y13.4281 I-0.1141 J0.1631
G03 X129.4307 Y13.2304 I-0.0841 J-0.1804
G00 Z5.0000


(No. 24: Hole 24)
G00 X192.9592 Y13.3517 Z5.0000
G00 Z0.5000
G01 Z-0.3000 F250
G03 X193.2716 Y13.2060 I0.1983 J0.0173
G03 X193.2416 Y13.5494 I-0.1142 J0.1631
G03 X192.9592 Y13.3517 I-0.0841 J-0.1804
G01 Z-0.6000
G03 X193.2716 Y13.2060 I0.1983 J0.0173
G03 X193.2416 Y13.5494 I-0.1142 J0.1631
G03 X192.9592 Y13.3517 I-0.0841 J-0.1804
G01 Z-0.9000
G03 X193.2716 Y13.2060 I0.1983 J0.0173
G03 X193.2416 Y13.5494 I-0.1142 J0.1631
G03 X192.9592 Y13.3517 I-0.0841 J-0.1804
G01 Z-1.2000
G03 X193.2716 Y13.2060 I0.1983 J0.0173
G03 X193.2416 Y13.5494 I-0.1142 J0.1631
G03 X192.9592 Y13.3517 I-0.0841 J-0.1804
G01 Z-1.5000
G03 X193.2716 Y13.2060 I0.1983 J0.0173
G03 X193.2416 Y13.5494 I-0.1142 J0.1631
G03 X192.9592 Y13.3517 I-0.0841 J-0.1804
G01 Z-1.8000
G03 X193.2716 Y13.2060 I0.1983 J0.0173
G03 X193.2416 Y13.5494 I-0.1142 J0.1631
G03 X192.9592 Y13.3517 I-0.0841 J-0.1804
G01 Z-2.1000
G03 X193.2716 Y13.2060 I0.1983 J0.0173
G03 X193.2416 Y13.5494 I-0.1142 J0.1631
G03 X192.9592 Y13.3517 I-0.0841 J-0.1804
G01 Z-2.4000
G03 X193.2716 Y13.2060 I0.1983 J0.0173
G03 X193.2416 Y13.5494 I-0.1142 J0.1631
G03 X192.9592 Y13.3517 I-0.0841 J-0.1804
G01 Z-2.7000
G03 X193.2716 Y13.2060 I0.1983 J0.0173
G03 X193.2416 Y13.5494 I-0.1142 J0.1631
G03 X192.9592 Y13.3517 I-0.0841 J-0.1804
G01 Z-3.0000
G03 X193.2716 Y13.2060 I0.1983 J0.0173
G03 X193.2416 Y13.5494 I-0.1142 J0.1631
G03 X192.9592 Y13.3517 I-0.0841 J-0.1804
G01 Z-3.3000
G03 X193.2716 Y13.2060 I0.1983 J0.0173
G03 X193.2416 Y13.5494 I-0.1142 J0.1631
G03 X192.9592 Y13.3517 I-0.0841 J-0.1804
G01 Z-3.6000
G03 X193.2716 Y13.2060 I0.1983 J0.0173
G03 X193.2416 Y13.5494 I-0.1142 J0.1631
G03 X192.9592 Y13.3517 I-0.0841 J-0.1804
G01 Z-3.9000
G03 X193.2716 Y13.2060 I0.1983 J0.0173
G03 X193.2416 Y13.5494 I-0.1142 J0.1631
G03 X192.9592 Y13.3517 I-0.0841 J-0.1804
G01 Z-4.2000
G03 X193.2716 Y13.2060 I0.1983 J0.0173
G03 X193.2416 Y13.5494 I-0.1142 J0.1631
G03 X192.9592 Y13.3517 I-0.0841 J-0.1804
G01 Z-4.5000
G03 X193.2716 Y13.2060 I0.1983 J0.0173
G03 X193.2416 Y13.5494 I-0.1142 J0.1631
G03 X192.9592 Y13.3517 I-0.0841 J-0.1804
G01 Z-4.8000
G03 X193.2716 Y13.2060 I0.1983 J0.0173
G03 X193.2416 Y13.5494 I-0.1142 J0.1631
G03 X192.9592 Y13.3517 I-0.0841 J-0.1804
G01 Z-5.1000
G03 X193.2716 Y13.2060 I0.1983 J0.0173
G03 X193.2416 Y13.5494 I-0.1142 J0.1631
G03 X192.9592 Y13.3517 I-0.0841 J-0.1804
G01 Z-5.4000
G03 X193.2716 Y13.2060 I0.1983 J0.0173
G03 X193.2416 Y13.5494 I-0.1142 J0.1631
G03 X192.9592 Y13.3517 I-0.0841 J-0.1804
G01 Z-5.7000
G03 X193.2716 Y13.2060 I0.1983 J0.0173
G03 X193.2416 Y13.5494 I-0.1142 J0.1631
G03 X192.9592 Y13.3517 I-0.0841 J-0.1804
G01 Z-6.0000
G03 X193.2716 Y13.2060 I0.1983 J0.0173
G03 X193.2416 Y13.5494 I-0.1142 J0.1631
G03 X192.9592 Y13.3517 I-0.0841 J-0.1804
G01 Z-6.3000
G03 X193.2716 Y13.2060 I0.1983 J0.0173
G03 X193.2416 Y13.5494 I-0.1142 J0.1631
G03 X192.9592 Y13.3517 I-0.0841 J-0.1804
G01 Z-6.6000
G03 X193.2716 Y13.2060 I0.1983 J0.0173
G03 X193.2416 Y13.5494 I-0.1142 J0.1631
G03 X192.9592 Y13.3517 I-0.0841 J-0.1804
G01 Z-6.9000
G03 X193.2716 Y13.2060 I0.1983 J0.0173
G03 X193.2416 Y13.5494 I-0.1142 J0.1631
G03 X192.9592 Y13.3517 I-0.0841 J-0.1804
G01 Z-7.2000
G03 X193.2716 Y13.2060 I0.1983 J0.0173
G03 X193.2416 Y13.5494 I-0.1142 J0.1631
G03 X192.9592 Y13.3517 I-0.0841 J-0.1804
G01 Z-7.5000
G03 X193.2716 Y13.2060 I0.1983 J0.0173
G03 X193.2416 Y13.5494 I-0.1142 J0.1631
G03 X192.9592 Y13.3517 I-0.0841 J-0.1804
G01 Z-7.8000
G03 X193.2716 Y13.2060 I0.1983 J0.0173
G03 X193.2416 Y13.5494 I-0.1142 J0.1631
G03 X192.9592 Y13.3517 I-0.0841 J-0.1804
G01 Z-8.1000
G03 X193.2716 Y13.2060 I0.1983 J0.0173
G03 X193.2416 Y13.5494 I-0.1142 J0.1631
G03 X192.9592 Y13.3517 I-0.0841 J-0.1804
G00 Z5.0000


(No. 25: Part 1)
G00 X22.8870 Y136.3975 Z5.0000
G00 Z0.5000
G01 Z-0.3000 F250
G01 X5.1470
G03 X1.1482 Y132.4466 I0.0032 J-4.0023
G01 X1.1470 Y132.3775
G01 Y8.3975
G03 X5.1189 Y4.3979 I4.0011 J0.0014
G01 X22.8830 Y4.3978
G00 Z0.0000
G01 X26.3830 Y4.3977
G01 Z-0.3000
G01 X44.1470 Y4.3975
G01 X44.2160 Y4.3997
G03 X48.1470 Y8.4175 I-0.0703 J4.0007
G01 Y132.3975
G03 X44.1270 Y136.3975 I-4.0039 J-0.0039
G01 X26.3870
G00 Z0.0000
G01 X22.8870
G01 Z-0.6000
G01 X5.1470
G03 X1.1482 Y132.4466 I0.0032 J-4.0023
G01 X1.1470 Y132.3775
G01 Y8.3975
G03 X5.1189 Y4.3979 I4.0011 J0.0014
G01 X22.8830 Y4.3978
G00 Z0.0000
G01 X26.3830 Y4.3977
G01 Z-0.6000
G01 X44.1470 Y4.3975
G01 X44.2160 Y4.3997
G03 X48.1470 Y8.4175 I-0.0703 J4.0007
G01 Y132.3975
G03 X44.1270 Y136.3975 I-4.0039 J-0.0039
G01 X26.3870
G00 Z0.0000
G01 X22.8870
G00 Z-0.1000
G01 Z-0.9000
G01 X5.1470
G03 X1.1482 Y132.4466 I0.0032 J-4.0023
G01 X1.1470 Y132.3775
G01 Y8.3975
G03 X5.1189 Y4.3979 I4.0011 J0.0014
G01 X22.8830 Y4.3978
G00 Z0.0000
G01 X26.3830 Y4.3977
G00 Z-0.1000
G01 Z-0.9000
G01 X44.1470 Y4.3975
G01 X44.2160 Y4.3997
G03 X48.1470 Y8.4175 I-0.0703 J4.0007
G01 Y132.3975
G03 X44.1270 Y136.3975 I-4.0039 J-0.0039
G01 X26.3870
G00 Z0.0000
G01 X22.8870
G00 Z-0.4000
G01 Z-1.2000
G01 X5.1470
G03 X1.1482 Y132.4466 I0.0032 J-4.0023
G01 X1.1470 Y132.3775
G01 Y8.3975
G03 X5.1189 Y4.3979 I4.0011 J0.0014
G01 X22.8830 Y4.3978
G00 Z0.0000
G01 X26.3830 Y4.3977
G00 Z-0.4000
G01 Z-1.2000
G01 X44.1470 Y4.3975
G01 X44.2160 Y4.3997
G03 X48.1470 Y8.4175 I-0.0703 J4.0007
G01 Y132.3975
G03 X44.1270 Y136.3975 I-4.0039 J-0.0039
G01 X26.3870
G00 Z0.0000
G01 X22.8870
G00 Z-0.7000
G01 Z-1.5000
G01 X5.1470
G03 X1.1482 Y132.4466 I0.0032 J-4.0023
G01 X1.1470 Y132.3775
G01 Y8.3975
G03 X5.1189 Y4.3979 I4.0011 J0.0014
G01 X22.8830 Y4.3978
G00 Z0.0000
G01 X26.3830 Y4.3977
G00 Z-0.7000
G01 Z-1.5000
G01 X44.1470 Y4.3975
G01 X44.2160 Y4.3997
G03 X48.1470 Y8.4175 I-0.0703 J4.0007
G01 Y132.3975
G03 X44.1270 Y136.3975 I-4.0039 J-0.0039
G01 X26.3870
G00 Z0.0000
G01 X22.8870
G00 Z-1.0000
G01 Z-1.8000
G01 X5.1470
G03 X1.1482 Y132.4466 I0.0032 J-4.0023
G01 X1.1470 Y132.3775
G01 Y8.3975
G03 X5.1189 Y4.3979 I4.0011 J0.0014
G01 X22.8830 Y4.3978
G00 Z0.0000
G01 X26.3830 Y4.3977
G00 Z-1.0000
G01 Z-1.8000
G01 X44.1470 Y4.3975
G01 X44.2160 Y4.3997
G03 X48.1470 Y8.4175 I-0.0703 J4.0007
G01 Y132.3975
G03 X44.1270 Y136.3975 I-4.0039 J-0.0039
G01 X26.3870
G00 Z0.0000
G01 X22.8870
G00 Z-1.3000
G01 Z-2.1000
G01 X5.1470
G03 X1.1482 Y132.4466 I0.0032 J-4.0023
G01 X1.1470 Y132.3775
G01 Y8.3975
G03 X5.1189 Y4.3979 I4.0011 J0.0014
G01 X22.8830 Y4.3978
G00 Z0.0000
G01 X26.3830 Y4.3977
G00 Z-1.3000
G01 Z-2.1000
G01 X44.1470 Y4.3975
G01 X44.2160 Y4.3997
G03 X48.1470 Y8.4175 I-0.0703 J4.0007
G01 Y132.3975
G03 X44.1270 Y136.3975 I-4.0039 J-0.0039
G01 X26.3870
G00 Z0.0000
G01 X22.8870
G00 Z-1.6000
G01 Z-2.4000
G01 X5.1470
G03 X1.1482 Y132.4466 I0.0032 J-4.0023
G01 X1.1470 Y132.3775
G01 Y8.3975
G03 X5.1189 Y4.3979 I4.0011 J0.0014
G01 X22.8830 Y4.3978
G00 Z0.0000
G01 X26.3830 Y4.3977
G00 Z-1.6000
G01 Z-2.4000
G01 X44.1470 Y4.3975
G01 X44.2160 Y4.3997
G03 X48.1470 Y8.4175 I-0.0703 J4.0007
G01 Y132.3975
G03 X44.1270 Y136.3975 I-4.0039 J-0.0039
G01 X26.3870
G00 Z0.0000
G01 X22.8870
G00 Z-1.9000
G01 Z-2.7000
G01 X5.1470
G03 X1.1482 Y132.4466 I0.0032 J-4.0023
G01 X1.1470 Y132.3775
G01 Y8.3975
G03 X5.1189 Y4.3979 I4.0011 J0.0014
G01 X22.8830 Y4.3978
G00 Z0.0000
G01 X26.3830 Y4.3977
G00 Z-1.9000
G01 Z-2.7000
G01 X44.1470 Y4.3975
G01 X44.2160 Y4.3997
G03 X48.1470 Y8.4175 I-0.0703 J4.0007
G01 Y132.3975
G03 X44.1270 Y136.3975 I-4.0039 J-0.0039
G01 X26.3870
G00 Z0.0000
G01 X22.8870
G00 Z-2.2000
G01 Z-3.0000
G01 X5.1470
G03 X1.1482 Y132.4466 I0.0032 J-4.0023
G01 X1.1470 Y132.3775
G01 Y8.3975
G03 X5.1189 Y4.3979 I4.0011 J0.0014
G01 X22.8830 Y4.3978
G00 Z0.0000
G01 X26.3830 Y4.3977
G00 Z-2.2000
G01 Z-3.0000
G01 X44.1470 Y4.3975
G01 X44.2160 Y4.3997
G03 X48.1470 Y8.4175 I-0.0703 J4.0007
G01 Y132.3975
G03 X44.1270 Y136.3975 I-4.0039 J-0.0039
G01 X26.3870
G00 Z0.0000
G01 X22.8870
G00 Z-2.5000
G01 Z-3.3000
G01 X5.1470
G03 X1.1482 Y132.4466 I0.0032 J-4.0023
G01 X1.1470 Y132.3775
G01 Y8.3975
G03 X5.1189 Y4.3979 I4.0011 J0.0014
G01 X22.8830 Y4.3978
G00 Z0.0000
G01 X26.3830 Y4.3977
G00 Z-2.5000
G01 Z-3.3000
G01 X44.1470 Y4.3975
G01 X44.2160 Y4.3997
G03 X48.1470 Y8.4175 I-0.0703 J4.0007
G01 Y132.3975
G03 X44.1270 Y136.3975 I-4.0039 J-0.0039
G01 X26.3870
G00 Z0.0000
G01 X22.8870
G00 Z-2.8000
G01 Z-3.6000
G01 X5.1470
G03 X1.1482 Y132.4466 I0.0032 J-4.0023
G01 X1.1470 Y132.3775
G01 Y8.3975
G03 X5.1189 Y4.3979 I4.0011 J0.0014
G01 X22.8830 Y4.3978
G00 Z0.0000
G01 X26.3830 Y4.3977
G00 Z-2.8000
G01 Z-3.6000
G01 X44.1470 Y4.3975
G01 X44.2160 Y4.3997
G03 X48.1470 Y8.4175 I-0.0703 J4.0007
G01 Y132.3975
G03 X44.1270 Y136.3975 I-4.0039 J-0.0039
G01 X26.3870
G00 Z0.0000
G01 X22.8870
G00 Z-3.1000
G01 Z-3.9000
G01 X5.1470
G03 X1.1482 Y132.4466 I0.0032 J-4.0023
G01 X1.1470 Y132.3775
G01 Y8.3975
G03 X5.1189 Y4.3979 I4.0011 J0.0014
G01 X22.8830 Y4.3978
G00 Z0.0000
G01 X26.3830 Y4.3977
G00 Z-3.1000
G01 Z-3.9000
G01 X44.1470 Y4.3975
G01 X44.2160 Y4.3997
G03 X48.1470 Y8.4175 I-0.0703 J4.0007
G01 Y132.3975
G03 X44.1270 Y136.3975 I-4.0039 J-0.0039
G01 X26.3870
G00 Z0.0000
G01 X22.8870
G00 Z-3.4000
G01 Z-4.2000
G01 X5.1470
G03 X1.1482 Y132.4466 I0.0032 J-4.0023
G01 X1.1470 Y132.3775
G01 Y8.3975
G03 X5.1189 Y4.3979 I4.0011 J0.0014
G01 X22.8830 Y4.3978
G00 Z0.0000
G01 X26.3830 Y4.3977
G00 Z-3.4000
G01 Z-4.2000
G01 X44.1470 Y4.3975
G01 X44.2160 Y4.3997
G03 X48.1470 Y8.4175 I-0.0703 J4.0007
G01 Y132.3975
G03 X44.1270 Y136.3975 I-4.0039 J-0.0039
G01 X26.3870
G00 Z0.0000
G01 X22.8870
G00 Z-3.7000
G01 Z-4.5000
G01 X5.1470
G03 X1.1482 Y132.4466 I0.0032 J-4.0023
G01 X1.1470 Y132.3775
G01 Y8.3975
G03 X5.1189 Y4.3979 I4.0011 J0.0014
G01 X22.8830 Y4.3978
G00 Z0.0000
G01 X26.3830 Y4.3977
G00 Z-3.7000
G01 Z-4.5000
G01 X44.1470 Y4.3975
G01 X44.2160 Y4.3997
G03 X48.1470 Y8.4175 I-0.0703 J4.0007
G01 Y132.3975
G03 X44.1270 Y136.3975 I-4.0039 J-0.0039
G01 X26.3870
G00 Z0.0000
G01 X22.8870
G00 Z-4.0000
G01 Z-4.8000
G01 X5.1470
G03 X1.1482 Y132.4466 I0.0032 J-4.0023
G01 X1.1470 Y132.3775
G01 Y8.3975
G03 X5.1189 Y4.3979 I4.0011 J0.0014
G01 X22.8830 Y4.3978
G00 Z0.0000
G01 X26.3830 Y4.3977
G00 Z-4.0000
G01 Z-4.8000
G01 X44.1470 Y4.3975
G01 X44.2160 Y4.3997
G03 X48.1470 Y8.4175 I-0.0703 J4.0007
G01 Y132.3975
G03 X44.1270 Y136.3975 I-4.0039 J-0.0039
G01 X26.3870
G00 Z0.0000
G01 X22.8870
G00 Z-4.3000
G01 Z-5.1000
G01 X5.1470
G03 X1.1482 Y132.4466 I0.0032 J-4.0023
G01 X1.1470 Y132.3775
G01 Y8.3975
G03 X5.1189 Y4.3979 I4.0011 J0.0014
G01 X22.8830 Y4.3978
G00 Z0.0000
G01 X26.3830 Y4.3977
G00 Z-4.3000
G01 Z-5.1000
G01 X44.1470 Y4.3975
G01 X44.2160 Y4.3997
G03 X48.1470 Y8.4175 I-0.0703 J4.0007
G01 Y132.3975
G03 X44.1270 Y136.3975 I-4.0039 J-0.0039
G01 X26.3870
G00 Z0.0000
G01 X22.8870
G00 Z-4.6000
G01 Z-5.4000
G01 X5.1470
G03 X1.1482 Y132.4466 I0.0032 J-4.0023
G01 X1.1470 Y132.3775
G01 Y8.3975
G03 X5.1189 Y4.3979 I4.0011 J0.0014
G01 X22.8830 Y4.3978
G00 Z0.0000
G01 X26.3830 Y4.3977
G00 Z-4.6000
G01 Z-5.4000
G01 X44.1470 Y4.3975
G01 X44.2160 Y4.3997
G03 X48.1470 Y8.4175 I-0.0703 J4.0007
G01 Y132.3975
G03 X44.1270 Y136.3975 I-4.0039 J-0.0039
G01 X26.3870
G00 Z0.0000
G01 X22.8870
G00 Z-4.9000
G01 Z-5.7000
G01 X5.1470
G03 X1.1482 Y132.4466 I0.0032 J-4.0023
G01 X1.1470 Y132.3775
G01 Y8.3975
G03 X5.1189 Y4.3979 I4.0011 J0.0014
G01 X22.8830 Y4.3978
G00 Z0.0000
G01 X26.3830 Y4.3977
G00 Z-4.9000
G01 Z-5.7000
G01 X44.1470 Y4.3975
G01 X44.2160 Y4.3997
G03 X48.1470 Y8.4175 I-0.0703 J4.0007
G01 Y132.3975
G03 X44.1270 Y136.3975 I-4.0039 J-0.0039
G01 X26.3870
G00 Z0.0000
G01 X22.8870
G00 Z-5.2000
G01 Z-6.0000
G01 X5.1470
G03 X1.1482 Y132.4466 I0.0032 J-4.0023
G01 X1.1470 Y132.3775
G01 Y8.3975
G03 X5.1189 Y4.3979 I4.0011 J0.0014
G01 X22.8830 Y4.3978
G00 Z0.0000
G01 X26.3830 Y4.3977
G00 Z-5.2000
G01 Z-6.0000
G01 X44.1470 Y4.3975
G01 X44.2160 Y4.3997
G03 X48.1470 Y8.4175 I-0.0703 J4.0007
G01 Y132.3975
G03 X44.1270 Y136.3975 I-4.0039 J-0.0039
G01 X26.3870
G00 Z0.0000
G01 X22.8870
G00 Z-5.5000
G01 Z-6.3000
G01 X5.1470
G03 X1.1482 Y132.4466 I0.0032 J-4.0023
G01 X1.1470 Y132.3775
G01 Y8.3975
G03 X5.1189 Y4.3979 I4.0011 J0.0014
G01 X22.8830 Y4.3978
G00 Z0.0000
G01 X26.3830 Y4.3977
G00 Z-5.5000
G01 Z-6.3000
G01 X44.1470 Y4.3975
G01 X44.2160 Y4.3997
G03 X48.1470 Y8.4175 I-0.0703 J4.0007
G01 Y132.3975
G03 X44.1270 Y136.3975 I-4.0039 J-0.0039
G01 X26.3870
G00 Z0.0000
G01 X22.8870
G00 Z-5.8000
G01 Z-6.6000
G01 X5.1470
G03 X1.1482 Y132.4466 I0.0032 J-4.0023
G01 X1.1470 Y132.3775
G01 Y8.3975
G03 X5.1189 Y4.3979 I4.0011 J0.0014
G01 X22.8830 Y4.3978
G00 Z0.0000
G01 X26.3830 Y4.3977
G00 Z-5.8000
G01 Z-6.6000
G01 X44.1470 Y4.3975
G01 X44.2160 Y4.3997
G03 X48.1470 Y8.4175 I-0.0703 J4.0007
G01 Y132.3975
G03 X44.1270 Y136.3975 I-4.0039 J-0.0039
G01 X26.3870
G00 Z0.0000
G01 X22.8870
G00 Z-6.1000
G01 Z-6.9000
G01 X5.1470
G03 X1.1482 Y132.4466 I0.0032 J-4.0023
G01 X1.1470 Y132.3775
G01 Y8.3975
G03 X5.1189 Y4.3979 I4.0011 J0.0014
G01 X22.8830 Y4.3978
G00 Z0.0000
G01 X26.3830 Y4.3977
G00 Z-6.1000
G01 Z-6.9000
G01 X44.1470 Y4.3975
G01 X44.2160 Y4.3997
